; generated by Slic3r 1.33.8 on 2018-04-12 at 12:05:13

; external perimeters extrusion width = 0.60mm
; perimeters extrusion width = 0.43mm
; infill extrusion width = 0.70mm
; solid infill extrusion width = 0.70mm
; top infill extrusion width = 0.43mm

M107
M115 U3.0.12 ; tell printer latest fw version
M83  ; extruder relative mode
M104 S215 ; set extruder temp
M140 S55 ; set bed temp
M190 S55 ; wait for bed temp
M109 S215 ; wait for extruder temp
G28 W ; home all without mesh bed level
G80 ; mesh bed leveling
G1 Y-3.0 F1000.0 ; go outside pritn area
G1 X60.0 E9.0  F1000.0 ; intro line
G1 X100.0 E12.5  F1000.0 ; intro line
G21 ; set units to millimeters
G90 ; use absolute coordinates
M83 ; use relative distances for extrusion
G1 E-0.80000 F2100.00000
G1 Z0.200 F7200.000
G1 X17.300 Y20.875 F7200.000
G1 E0.80000 F2100.00000
M204 S1000
G1 F2100
G1 X232.595 Y20.873 E6.75045
G1 X233.398 Y20.912 E0.02520
G1 X234.203 Y21.014 E0.02545
G1 X234.998 Y21.178 E0.02545
G1 X235.777 Y21.404 E0.02545
G1 X236.530 Y21.687 E0.02520
G1 X237.265 Y22.031 E0.02545
G1 X237.964 Y22.428 E0.02520
G1 X238.636 Y22.882 E0.02545
G1 X239.113 Y23.253 E0.01896
G1 X239.562 Y23.647 E0.01871
G1 X239.988 Y24.065 E0.01871
G1 X240.388 Y24.508 E0.01871
G1 X240.763 Y24.972 E0.01871
G1 X241.114 Y25.464 E0.01896
G1 X241.433 Y25.969 E0.01871
G1 X241.722 Y26.491 E0.01871
G1 X241.980 Y27.029 E0.01871
G1 X242.207 Y27.581 E0.01871
G1 X242.402 Y28.145 E0.01871
G1 X242.566 Y28.727 E0.01896
G1 X242.694 Y29.310 E0.01871
G1 X242.790 Y29.907 E0.01896
G1 X242.850 Y30.501 E0.01871
G1 X242.876 Y31.105 E0.01896
G1 X242.876 Y178.885 E4.63354
G1 X242.835 Y179.688 E0.02520
G1 X242.731 Y180.485 E0.02520
G1 X242.566 Y181.271 E0.02520
G1 X242.341 Y182.043 E0.02520
G1 X242.057 Y182.794 E0.02520
G1 X241.715 Y183.522 E0.02520
G1 X241.318 Y184.220 E0.02520
G1 X240.868 Y184.886 E0.02520
G1 X240.497 Y185.363 E0.01896
G1 X240.103 Y185.812 E0.01871
G1 X239.679 Y186.243 E0.01896
G1 X239.236 Y186.643 E0.01871
G1 X238.771 Y187.018 E0.01871
G1 X238.279 Y187.369 E0.01896
G1 X237.767 Y187.691 E0.01896
G1 X237.237 Y187.983 E0.01896
G1 X236.699 Y188.240 E0.01871
G1 X236.139 Y188.468 E0.01896
G1 X235.567 Y188.664 E0.01896
G1 X234.984 Y188.825 E0.01896
G1 X234.401 Y188.952 E0.01871
G1 X233.803 Y189.045 E0.01896
G1 X233.201 Y189.103 E0.01896
G1 X232.605 Y189.127 E0.01871
G1 X17.404 Y189.127 E6.74746
G1 X16.602 Y189.088 E0.02520
G1 X15.797 Y188.986 E0.02545
G1 X15.002 Y188.822 E0.02545
G1 X14.223 Y188.596 E0.02545
G1 X13.470 Y188.313 E0.02520
G1 X12.735 Y187.969 E0.02545
G1 X12.036 Y187.572 E0.02520
G1 X11.364 Y187.118 E0.02545
G1 X10.899 Y186.757 E0.01846
G1 X10.450 Y186.364 E0.01871
G1 X10.029 Y185.952 E0.01846
G1 X9.632 Y185.517 E0.01846
G1 X9.261 Y185.059 E0.01846
G1 X8.917 Y184.582 E0.01846
G1 X8.596 Y184.079 E0.01871
G1 X8.308 Y183.565 E0.01846
G1 X8.049 Y183.036 E0.01846
G1 X7.822 Y182.493 E0.01846
G1 X7.625 Y181.938 E0.01846
G1 X7.458 Y181.365 E0.01871
G1 X7.326 Y180.791 E0.01846
G1 X7.226 Y180.211 E0.01846
G1 X7.160 Y179.626 E0.01846
G1 X7.127 Y179.030 E0.01871
G1 X7.129 Y30.884 E4.64501
G1 X7.210 Y29.909 E0.03068
G1 X7.382 Y28.946 E0.03068
G1 X7.644 Y28.003 E0.03068
G1 X7.994 Y27.089 E0.03068
G1 X8.428 Y26.212 E0.03068
G1 X8.943 Y25.380 E0.03068
G1 X9.534 Y24.600 E0.03068
G1 X10.201 Y23.874 E0.03093
G1 X10.929 Y23.219 E0.03068
G1 X11.714 Y22.636 E0.03068
G1 X12.551 Y22.129 E0.03068
G1 X13.433 Y21.703 E0.03068
G1 X14.350 Y21.363 E0.03068
G1 X15.295 Y21.110 E0.03068
G1 X16.260 Y20.947 E0.03068
G1 X17.240 Y20.876 E0.03080
G1 F5760
G1 X19.434 Y20.876 E-0.76000
G1 E-0.04000 F2100.00000
G1 X13.830 Y22.389 F7200.000
G1 E0.80000 F2100.00000
G1 F2100
G1 X22.670 Y22.389 E0.27720
G1 X27.861 Y27.580 E0.23017
G1 X27.861 Y160.670 E4.17297
G1 X22.670 Y165.861 E0.23017
G1 X13.830 Y165.861 E0.27720
G1 X8.639 Y160.670 E0.23017
G1 X8.639 Y27.580 E4.17297
G1 X13.787 Y22.431 E0.22829
G1 X13.986 Y22.766 F7200.000
G1 F2100
G1 X22.514 Y22.766 E0.26741
G1 X27.484 Y27.736 E0.22038
G1 X27.484 Y160.514 E4.16318
G1 X22.514 Y165.484 E0.22038
G1 X13.986 Y165.484 E0.26741
G1 X9.016 Y160.514 E0.22038
G1 X9.016 Y27.736 E4.16318
G1 X13.943 Y22.808 E0.21850
G1 X14.142 Y23.143 F7200.000
G1 F2100
G1 X22.358 Y23.143 E0.25761
G1 X27.107 Y27.892 E0.21058
G1 X27.107 Y160.358 E4.15339
G1 X22.358 Y165.107 E0.21058
G1 X14.142 Y165.107 E0.25761
G1 X9.393 Y160.358 E0.21058
G1 X9.393 Y27.892 E4.15339
G1 X14.099 Y23.185 E0.20870
G1 X14.298 Y23.520 F7200.000
G1 F2100
G1 X22.202 Y23.520 E0.24782
G1 X26.730 Y28.048 E0.20079
G1 X26.730 Y160.202 E4.14359
G1 X22.202 Y164.730 E0.20079
G1 X14.298 Y164.730 E0.24782
G1 X9.770 Y160.202 E0.20079
G1 X9.770 Y28.048 E4.14359
G1 X14.256 Y23.562 E0.19891
G1 X14.454 Y23.897 F7200.000
G1 F2100
G1 X22.046 Y23.897 E0.23802
G1 X26.353 Y28.204 E0.19099
G1 X26.353 Y160.046 E4.13380
G1 X22.046 Y164.353 E0.19099
G1 X14.454 Y164.353 E0.23802
G1 X10.147 Y160.046 E0.19099
G1 X10.147 Y28.204 E4.13380
G1 X14.412 Y23.939 E0.18911
G1 X14.610 Y24.274 F7200.000
G1 F2100
G1 X21.890 Y24.274 E0.22823
G1 X25.976 Y28.360 E0.18120
G1 X25.976 Y159.890 E4.12400
G1 X21.890 Y163.976 E0.18120
G1 X14.610 Y163.976 E0.22823
G1 X10.524 Y159.890 E0.18120
G1 X10.524 Y28.360 E4.12400
G1 X14.568 Y24.316 E0.17932
G1 X14.767 Y24.651 F7200.000
G1 F2100
G1 X21.733 Y24.651 E0.21844
G1 X25.599 Y28.517 E0.17140
G1 X25.599 Y159.733 E4.11421
G1 X21.733 Y163.599 E0.17140
G1 X14.767 Y163.599 E0.21844
G1 X10.901 Y159.733 E0.17140
G1 X10.901 Y28.517 E4.11421
G1 X14.724 Y24.694 E0.16952
G1 X14.923 Y25.028 F7200.000
G1 F2100
G1 X21.577 Y25.028 E0.20864
G1 X25.222 Y28.673 E0.16161
G1 X25.222 Y159.577 E4.10441
G1 X21.577 Y163.222 E0.16161
G1 X14.923 Y163.222 E0.20864
G1 X11.278 Y159.577 E0.16161
G1 X11.278 Y28.673 E4.10441
G1 X14.880 Y25.071 E0.15973
G1 X15.079 Y25.405 F7200.000
G1 F2100
G1 X21.421 Y25.405 E0.19885
G1 X24.845 Y28.829 E0.15182
G1 X24.845 Y159.421 E4.09462
G1 X21.421 Y162.845 E0.15182
G1 X15.079 Y162.845 E0.19885
G1 X11.655 Y159.421 E0.15182
G1 X11.655 Y28.829 E4.09462
G1 X15.037 Y25.448 E0.14993
G1 X15.235 Y25.782 F7200.000
G1 F2100
G1 X21.265 Y25.782 E0.18905
G1 X24.468 Y28.985 E0.14202
G1 X24.468 Y159.265 E4.08482
G1 X21.265 Y162.468 E0.14202
G1 X15.235 Y162.468 E0.18905
G1 X12.032 Y159.265 E0.14202
G1 X12.032 Y28.985 E4.08482
G1 X15.193 Y25.825 E0.14014
G1 X15.391 Y26.159 F7200.000
G1 F2100
G1 X21.109 Y26.159 E0.17926
G1 X24.091 Y29.141 E0.13223
G1 X24.091 Y159.109 E4.07503
G1 X21.109 Y162.091 E0.13223
G1 X15.391 Y162.091 E0.17926
G1 X12.409 Y159.109 E0.13223
G1 X12.409 Y29.141 E4.07503
G1 X15.349 Y26.202 E0.13034
G1 X15.548 Y26.537 F7200.000
G1 F2100
G1 X20.952 Y26.537 E0.16946
G1 X23.713 Y29.298 E0.12243
G1 X23.713 Y158.952 E4.06523
G1 X20.952 Y161.713 E0.12243
G1 X15.548 Y161.713 E0.16946
G1 X12.787 Y158.952 E0.12243
G1 X12.787 Y29.298 E4.06523
G1 X15.505 Y26.579 E0.12055
G1 X15.704 Y26.914 F7200.000
G1 F2100
G1 X20.796 Y26.914 E0.15967
G1 X23.336 Y29.454 E0.11264
G1 X23.336 Y158.796 E4.05544
G1 X20.796 Y161.336 E0.11264
G1 X15.704 Y161.336 E0.15967
G1 X13.164 Y158.796 E0.11264
G1 X13.164 Y29.454 E4.05544
G1 X15.661 Y26.956 E0.11076
G1 X15.860 Y27.291 F7200.000
G1 F2100
G1 X20.640 Y27.291 E0.14987
G1 X22.959 Y29.610 E0.10284
G1 X22.959 Y158.640 E4.04565
G1 X20.640 Y160.959 E0.10284
G1 X15.860 Y160.959 E0.14987
G1 X13.541 Y158.640 E0.10284
G1 X13.541 Y29.610 E4.04565
G1 X15.818 Y27.333 E0.10096
G1 X16.016 Y27.668 F7200.000
G1 F2100
G1 X20.484 Y27.668 E0.14008
G1 X22.582 Y29.766 E0.09305
G1 X22.582 Y158.484 E4.03585
G1 X20.484 Y160.582 E0.09305
G1 X16.016 Y160.582 E0.14008
G1 X13.918 Y158.484 E0.09305
G1 X13.918 Y29.766 E4.03585
G1 X15.974 Y27.710 E0.09117
G1 X16.172 Y28.045 F7200.000
G1 F2100
G1 X20.328 Y28.045 E0.13029
G1 X22.205 Y29.922 E0.08325
G1 X22.205 Y158.328 E4.02606
G1 X20.328 Y160.205 E0.08325
G1 X16.172 Y160.205 E0.13029
G1 X14.295 Y158.328 E0.08325
G1 X14.295 Y29.922 E4.02606
G1 X16.130 Y28.087 E0.08137
G1 X16.329 Y28.422 F7200.000
G1 F2100
G1 X20.171 Y28.422 E0.12049
G1 X21.828 Y30.079 E0.07346
G1 X21.828 Y158.171 E4.01626
G1 X20.171 Y159.828 E0.07346
G1 X16.329 Y159.828 E0.12049
G1 X14.672 Y158.171 E0.07346
G1 X14.672 Y30.079 E4.01626
G1 X16.286 Y28.464 E0.07158
G1 X16.485 Y28.799 F7200.000
G1 F2100
G1 X20.015 Y28.799 E0.11070
G1 X21.451 Y30.235 E0.06366
G1 X21.451 Y158.015 E4.00647
G1 X20.015 Y159.451 E0.06366
G1 X16.485 Y159.451 E0.11070
G1 X15.049 Y158.015 E0.06366
G1 X15.049 Y30.235 E4.00647
G1 X16.442 Y28.841 E0.06178
G1 X16.641 Y29.176 F7200.000
G1 F2100
G1 X19.859 Y29.176 E0.10090
G1 X21.074 Y30.391 E0.05387
G1 X21.074 Y157.859 E3.99667
G1 X19.859 Y159.074 E0.05387
G1 X16.641 Y159.074 E0.10090
G1 X15.426 Y157.859 E0.05387
G1 X15.426 Y30.391 E3.99667
G1 X16.599 Y29.218 E0.05199
G1 X16.797 Y29.553 F7200.000
G1 F2100
G1 X19.703 Y29.553 E0.09111
G1 X20.697 Y30.547 E0.04408
G1 X20.697 Y157.703 E3.98688
G1 X19.703 Y158.697 E0.04408
G1 X16.797 Y158.697 E0.09111
G1 X15.803 Y157.703 E0.04408
G1 X15.803 Y30.547 E3.98688
G1 X16.755 Y29.596 E0.04219
G1 X16.953 Y29.930 F7200.000
G1 F2100
G1 X19.547 Y29.930 E0.08131
G1 X20.320 Y30.703 E0.03428
G1 X20.320 Y157.547 E3.97708
G1 X19.547 Y158.320 E0.03428
G1 X16.953 Y158.320 E0.08131
G1 X16.180 Y157.547 E0.03428
G1 X16.180 Y30.703 E3.97708
G1 X16.911 Y29.973 E0.03240
G1 X17.110 Y30.307 F7200.000
G1 F2100
G1 X19.390 Y30.307 E0.07152
G1 X19.943 Y30.860 E0.02449
G1 X19.943 Y157.390 E3.96729
G1 X19.390 Y157.943 E0.02449
G1 X17.110 Y157.943 E0.07152
G1 X16.557 Y157.390 E0.02449
G1 X16.557 Y30.860 E3.96729
G1 X17.067 Y30.350 E0.02261
G1 X17.266 Y30.684 F7200.000
G1 F2100
G1 X19.234 Y30.684 E0.06172
G1 X19.566 Y31.016 E0.01469
G1 X19.566 Y157.234 E3.95749
G1 X19.234 Y157.566 E0.01469
G1 X17.266 Y157.566 E0.06172
G1 X16.934 Y157.234 E0.01469
G1 X16.934 Y31.016 E3.95749
G1 X17.223 Y30.727 E0.01281
G1 X17.422 Y31.061 F7200.000
G1 F2100
G1 X19.078 Y31.061 E0.05193
G1 X19.189 Y31.172 E0.00490
G1 X19.189 Y157.078 E3.94770
G1 X19.078 Y157.189 E0.00490
G1 X17.422 Y157.189 E0.05193
G1 X17.311 Y157.078 E0.00490
G1 X17.311 Y31.172 E3.94770
G1 X17.379 Y31.104 E0.00302
G1 F5760
G1 X19.078 Y31.061 E-0.58851
G1 F5760
G1 X19.189 Y31.172 E-0.05410
G1 F5760
G1 X19.189 Y31.511 E-0.11740
G1 E-0.04000 F2100.00000
G1 X222.139 Y27.580 F7200.000
G1 E0.80000 F2100.00000
G1 F2100
G1 X227.330 Y22.389 E0.23017
G1 X236.170 Y22.389 E0.27720
G1 X241.361 Y27.580 E0.23017
G1 X241.361 Y160.670 E4.17297
G1 X236.170 Y165.861 E0.23017
G1 X227.330 Y165.861 E0.27720
G1 X222.139 Y160.670 E0.23017
G1 X222.139 Y27.640 E4.17109
G1 X222.516 Y27.736 F7200.000
G1 F2100
G1 X227.486 Y22.766 E0.22038
G1 X236.014 Y22.766 E0.26741
G1 X240.984 Y27.736 E0.22038
G1 X240.984 Y160.514 E4.16318
G1 X236.014 Y165.484 E0.22038
G1 X227.486 Y165.484 E0.26741
G1 X222.516 Y160.514 E0.22038
G1 X222.516 Y27.796 E4.16130
G1 X222.893 Y27.892 F7200.000
G1 F2100
G1 X227.642 Y23.143 E0.21058
G1 X235.858 Y23.143 E0.25761
G1 X240.607 Y27.892 E0.21058
G1 X240.607 Y160.358 E4.15339
G1 X235.858 Y165.107 E0.21058
G1 X227.642 Y165.107 E0.25761
G1 X222.893 Y160.358 E0.21058
G1 X222.893 Y27.952 E4.15150
G1 X223.270 Y28.048 F7200.000
G1 F2100
G1 X227.798 Y23.520 E0.20079
G1 X235.702 Y23.520 E0.24782
G1 X240.230 Y28.048 E0.20079
G1 X240.230 Y160.202 E4.14359
G1 X235.702 Y164.730 E0.20079
G1 X227.798 Y164.730 E0.24782
G1 X223.270 Y160.202 E0.20079
G1 X223.270 Y28.108 E4.14171
G1 X223.647 Y28.204 F7200.000
G1 F2100
G1 X227.954 Y23.897 E0.19099
G1 X235.546 Y23.897 E0.23802
G1 X239.853 Y28.204 E0.19099
G1 X239.853 Y160.046 E4.13380
G1 X235.546 Y164.353 E0.19099
G1 X227.954 Y164.353 E0.23802
G1 X223.647 Y160.046 E0.19099
G1 X223.647 Y28.264 E4.13192
G1 X224.024 Y28.360 F7200.000
G1 F2100
G1 X228.110 Y24.274 E0.18120
G1 X235.390 Y24.274 E0.22823
G1 X239.476 Y28.360 E0.18120
G1 X239.476 Y159.890 E4.12400
G1 X235.390 Y163.976 E0.18120
G1 X228.110 Y163.976 E0.22823
G1 X224.024 Y159.890 E0.18120
G1 X224.024 Y28.420 E4.12212
G1 X224.401 Y28.517 F7200.000
G1 F2100
G1 X228.267 Y24.651 E0.17140
G1 X235.233 Y24.651 E0.21844
G1 X239.099 Y28.517 E0.17140
G1 X239.099 Y159.733 E4.11421
G1 X235.233 Y163.599 E0.17140
G1 X228.267 Y163.599 E0.21844
G1 X224.401 Y159.733 E0.17140
G1 X224.401 Y28.577 E4.11233
G1 X224.778 Y28.673 F7200.000
G1 F2100
G1 X228.423 Y25.028 E0.16161
G1 X235.077 Y25.028 E0.20864
G1 X238.722 Y28.673 E0.16161
G1 X238.722 Y159.577 E4.10441
G1 X235.077 Y163.222 E0.16161
G1 X228.423 Y163.222 E0.20864
G1 X224.778 Y159.577 E0.16161
G1 X224.778 Y28.733 E4.10253
G1 X225.155 Y28.829 F7200.000
G1 F2100
G1 X228.579 Y25.405 E0.15182
G1 X234.921 Y25.405 E0.19885
G1 X238.345 Y28.829 E0.15182
G1 X238.345 Y159.421 E4.09462
G1 X234.921 Y162.845 E0.15182
G1 X228.579 Y162.845 E0.19885
G1 X225.155 Y159.421 E0.15182
G1 X225.155 Y28.889 E4.09274
G1 X225.532 Y28.985 F7200.000
G1 F2100
G1 X228.735 Y25.782 E0.14202
G1 X234.765 Y25.782 E0.18905
G1 X237.968 Y28.985 E0.14202
G1 X237.968 Y159.265 E4.08482
G1 X234.765 Y162.468 E0.14202
G1 X228.735 Y162.468 E0.18905
G1 X225.532 Y159.265 E0.14202
G1 X225.532 Y29.045 E4.08294
G1 X225.909 Y29.141 F7200.000
G1 F2100
G1 X228.891 Y26.159 E0.13223
G1 X234.609 Y26.159 E0.17926
G1 X237.591 Y29.141 E0.13223
G1 X237.591 Y159.109 E4.07503
G1 X234.609 Y162.091 E0.13223
G1 X228.891 Y162.091 E0.17926
G1 X225.909 Y159.109 E0.13223
G1 X225.909 Y29.201 E4.07315
G1 X226.287 Y29.298 F7200.000
G1 F2100
G1 X229.048 Y26.537 E0.12243
G1 X234.452 Y26.537 E0.16946
G1 X237.213 Y29.298 E0.12243
G1 X237.213 Y158.952 E4.06523
G1 X234.452 Y161.713 E0.12243
G1 X229.048 Y161.713 E0.16946
G1 X226.287 Y158.952 E0.12243
G1 X226.287 Y29.358 E4.06335
G1 X226.664 Y29.454 F7200.000
G1 F2100
G1 X229.204 Y26.914 E0.11264
G1 X234.296 Y26.914 E0.15967
G1 X236.836 Y29.454 E0.11264
G1 X236.836 Y158.796 E4.05544
G1 X234.296 Y161.336 E0.11264
G1 X229.204 Y161.336 E0.15967
G1 X226.664 Y158.796 E0.11264
G1 X226.664 Y29.514 E4.05356
G1 X227.041 Y29.610 F7200.000
G1 F2100
G1 X229.360 Y27.291 E0.10284
G1 X234.140 Y27.291 E0.14987
G1 X236.459 Y29.610 E0.10284
G1 X236.459 Y158.640 E4.04565
G1 X234.140 Y160.959 E0.10284
G1 X229.360 Y160.959 E0.14987
G1 X227.041 Y158.640 E0.10284
G1 X227.041 Y29.670 E4.04376
G1 X227.418 Y29.766 F7200.000
G1 F2100
G1 X229.516 Y27.668 E0.09305
G1 X233.984 Y27.668 E0.14008
G1 X236.082 Y29.766 E0.09305
G1 X236.082 Y158.484 E4.03585
G1 X233.984 Y160.582 E0.09305
G1 X229.516 Y160.582 E0.14008
G1 X227.418 Y158.484 E0.09305
G1 X227.418 Y29.826 E4.03397
G1 X227.795 Y29.922 F7200.000
G1 F2100
G1 X229.672 Y28.045 E0.08325
G1 X233.828 Y28.045 E0.13029
G1 X235.705 Y29.922 E0.08325
G1 X235.705 Y158.328 E4.02606
G1 X233.828 Y160.205 E0.08325
G1 X229.672 Y160.205 E0.13029
G1 X227.795 Y158.328 E0.08325
G1 X227.795 Y29.982 E4.02418
G1 X228.172 Y30.079 F7200.000
G1 F2100
G1 X229.829 Y28.422 E0.07346
G1 X233.671 Y28.422 E0.12049
G1 X235.328 Y30.079 E0.07346
G1 X235.328 Y158.171 E4.01626
G1 X233.671 Y159.828 E0.07346
G1 X229.829 Y159.828 E0.12049
G1 X228.172 Y158.171 E0.07346
G1 X228.172 Y30.139 E4.01438
G1 X228.549 Y30.235 F7200.000
G1 F2100
G1 X229.985 Y28.799 E0.06366
G1 X233.515 Y28.799 E0.11070
G1 X234.951 Y30.235 E0.06366
G1 X234.951 Y158.015 E4.00647
G1 X233.515 Y159.451 E0.06366
G1 X229.985 Y159.451 E0.11070
G1 X228.549 Y158.015 E0.06366
G1 X228.549 Y30.295 E4.00459
G1 X228.926 Y30.391 F7200.000
G1 F2100
G1 X230.141 Y29.176 E0.05387
G1 X233.359 Y29.176 E0.10090
G1 X234.574 Y30.391 E0.05387
G1 X234.574 Y157.859 E3.99667
G1 X233.359 Y159.074 E0.05387
G1 X230.141 Y159.074 E0.10090
G1 X228.926 Y157.859 E0.05387
G1 X228.926 Y30.451 E3.99479
G1 X229.303 Y30.547 F7200.000
G1 F2100
G1 X230.297 Y29.553 E0.04408
G1 X233.203 Y29.553 E0.09111
G1 X234.197 Y30.547 E0.04408
G1 X234.197 Y157.703 E3.98688
G1 X233.203 Y158.697 E0.04408
G1 X230.297 Y158.697 E0.09111
G1 X229.303 Y157.703 E0.04408
G1 X229.303 Y30.607 E3.98500
G1 X229.680 Y30.703 F7200.000
G1 F2100
G1 X230.453 Y29.930 E0.03428
G1 X233.047 Y29.930 E0.08131
G1 X233.820 Y30.703 E0.03428
G1 X233.820 Y157.547 E3.97708
G1 X233.047 Y158.320 E0.03428
G1 X230.453 Y158.320 E0.08131
G1 X229.680 Y157.547 E0.03428
G1 X229.680 Y30.763 E3.97520
G1 X230.057 Y30.860 F7200.000
G1 F2100
G1 X230.610 Y30.307 E0.02449
