; generated by Slic3r 1.33.8 on 2018-04-11 at 15:57:01

; external perimeters extrusion width = 0.60mm
; perimeters extrusion width = 0.43mm
; infill extrusion width = 0.70mm
; solid infill extrusion width = 0.70mm
; top infill extrusion width = 0.43mm

M107
M115 U3.0.12 ; tell printer latest fw version
M83  ; extruder relative mode
M104 S215 ; set extruder temp
M140 S55 ; set bed temp
M190 S55 ; wait for bed temp
M109 S215 ; wait for extruder temp
G28 W ; home all without mesh bed level
G80 ; mesh bed leveling
G1 Y-3.0 F1000.0 ; go outside pritn area
G1 X60.0 E9.0  F1000.0 ; intro line
G1 X100.0 E12.5  F1000.0 ; intro line
G21 ; set units to millimeters
G90 ; use absolute coordinates
M83 ; use relative distances for extrusion
G1 E-0.80000 F2100.00000
G1 Z0.200 F7200.000
G1 X22.809 Y26.390 F7200.000
G1 E0.80000 F2100.00000
M204 S1000
G1 F2100
G1 X238.011 Y26.382 E6.74749
G1 X238.394 Y26.413 E0.01205
G1 X238.767 Y26.506 E0.01205
G1 X239.120 Y26.658 E0.01205
G1 X239.444 Y26.865 E0.01205
G1 X239.647 Y27.038 E0.00836
G1 X239.831 Y27.235 E0.00847
G1 X239.993 Y27.452 E0.00847
G1 X240.128 Y27.686 E0.00847
G1 X240.236 Y27.933 E0.00847
G1 X240.315 Y28.188 E0.00836
G1 X240.365 Y28.454 E0.00847
G1 X240.384 Y28.723 E0.00847
G1 X240.378 Y90.434 E1.93489
G1 X228.439 Y180.906 E2.86130
G1 X228.379 Y181.205 E0.00955
G1 X228.280 Y181.497 E0.00967
G1 X228.146 Y181.770 E0.00955
G1 X227.978 Y182.024 E0.00955
G1 X227.803 Y182.230 E0.00847
G1 X227.602 Y182.417 E0.00859
G1 X227.382 Y182.579 E0.00859
G1 X227.144 Y182.716 E0.00859
G1 X226.895 Y182.822 E0.00847
G1 X226.633 Y182.901 E0.00859
G1 X226.363 Y182.948 E0.00859
G1 X226.089 Y182.965 E0.00859
G1 X6.580 Y182.965 E6.88255
G1 X6.197 Y182.933 E0.01205
G1 X5.824 Y182.840 E0.01205
G1 X5.471 Y182.688 E0.01205
G1 X5.147 Y182.482 E0.01205
G1 X4.941 Y182.306 E0.00847
G1 X4.755 Y182.106 E0.00859
G1 X4.594 Y181.888 E0.00847
G1 X4.459 Y181.654 E0.00847
G1 X4.352 Y181.406 E0.00847
G1 X4.273 Y181.144 E0.00859
G1 X4.224 Y180.878 E0.00847
G1 X4.207 Y180.604 E0.00859
G1 X4.207 Y48.419 E4.14458
G1 X4.222 Y48.152 E0.00836
G1 X4.284 Y47.819 E0.01062
G1 X4.392 Y47.499 E0.01062
G1 X4.545 Y47.196 E0.01062
G1 X4.737 Y46.922 E0.01050
G1 X21.198 Y27.217 E0.80503
G1 X21.520 Y26.905 E0.01407
G1 X21.895 Y26.658 E0.01407
G1 X22.309 Y26.486 E0.01407
G1 X22.750 Y26.396 E0.01410
G1 F5760
G1 X24.944 Y26.395 E-0.76000
G1 E-0.04000 F2100.00000
G1 X237.094 Y51.096 F7200.000
G1 E0.80000 F2100.00000
G1 F1680
G1 X237.420 Y51.096 E0.01022
G1 X237.420 Y89.672 E1.20952
G1 X237.094 Y89.672 E0.01022
G1 X237.094 Y51.156 E1.20764
G1 X236.717 Y50.719 F7200.000
G1 F1260
G1 X237.797 Y50.719 E0.03386
G1 X237.797 Y90.049 E1.23316
G1 X236.717 Y90.049 E0.03386
G1 X236.717 Y50.779 E1.23128
G1 X237.065 Y50.916 F7200.000
G1 F5760
G1 X237.797 Y50.719 E-0.37464
G1 F5760
G1 X237.797 Y51.831 E-0.38536
G1 E-0.04000 F2100.00000
G1 X237.797 Y29.799 F7200.000
G1 E0.80000 F2100.00000
G1 F1260
G1 X23.217 Y29.799 E6.72801
G1 X23.217 Y28.969 E0.02602
G1 X237.797 Y28.969 E6.72801
G1 X237.797 Y29.739 E0.02414
G1 X237.397 Y29.798 F7200.000
G1 X237.609 Y29.384 F7200.000
G1 F1680
G1 X23.406 Y29.384 E7.30259
G1 F5760
G1 X25.600 Y29.384 E-0.76000
G1 E-0.04000 F2100.00000
G1 X23.594 Y51.096 F7200.000
G1 E0.80000 F2100.00000
G1 F1680
G1 X23.920 Y51.096 E0.01022
G1 X23.920 Y89.672 E1.20952
G1 X23.594 Y89.672 E0.01022
G1 X23.594 Y51.156 E1.20764
G1 X23.217 Y50.719 F7200.000
G1 F1260
G1 X24.297 Y50.719 E0.03386
G1 X24.297 Y90.049 E1.23316
G1 X23.217 Y90.049 E0.03386
G1 X23.217 Y50.779 E1.23128
G1 X23.565 Y50.916 F7200.000
G1 F5760
G1 X24.297 Y50.719 E-0.37464
G1 F5760
G1 X24.297 Y51.831 E-0.38536
G1 E-0.04000 F2100.00000
G1 Z0.200 F7200.000
G1 X7.997 Y179.308 F7200.000
G1 E0.80000 F2100.00000
G1 F1680
G1 X224.671 Y179.308 E6.79367
G1 X224.671 Y49.006 E4.08554
G1 X225.497 Y49.006 E0.02589
G1 X225.497 Y180.001 E4.10726
G1 X7.171 Y180.001 E6.84545
G1 X7.171 Y49.006 E4.10726
G1 X7.997 Y49.006 E0.02589
G1 X7.997 Y179.248 E4.08365
G1 X8.374 Y178.931 F7200.000
G1 F1260
G1 X224.294 Y178.931 E6.77002
G1 X224.294 Y48.629 E4.08554
G1 X225.874 Y48.629 E0.04954
G1 X225.874 Y180.378 E4.13091
G1 X6.794 Y180.378 E6.86910
G1 X6.794 Y48.629 E4.13091
G1 X8.374 Y48.629 E0.04954
G1 X8.374 Y178.871 E4.08365
G1 X8.375 Y179.331 F7200.000
G1 F5760
G1 X10.568 Y178.871 E-0.76000
G1 E-0.04000 F2100.00000
G1 X7.664 Y179.605 F7200.000
G1 E0.80000 F2100.00000
G1 F1680
G1 X7.592 Y179.580 E0.00267
G1 X7.584 Y179.496 E0.00294
G1 X7.584 Y49.194 E4.56591
G1 F5760
G1 X7.584 Y51.388 E-0.76000
G1 E-0.04000 F2100.00000
G1 X7.664 Y179.605 F7200.000
G1 E0.80000 F2100.00000
G1 F1680
G1 X7.808 Y179.654 E0.00409
G1 X224.859 Y179.654 E5.81809
G1 X224.932 Y179.630 E0.00205
G1 F1680
G1 X225.076 Y179.580 E0.00515
G1 X225.084 Y179.496 E0.00283
G1 X225.084 Y49.194 E4.39721
M106 S216.75
M104 S210 ; set temperature
G1 F5760
G1 X225.084 Y51.388 E-0.76000
G1 E-0.04000 F2100.00000
G1 Z0.550 F7200.000
G1 X4.207 Y48.419 F7200.000
G1 E0.80000 F2100.00000
G1 F3000
G1 X4.240 Y48.020 E0.02005
G1 X4.341 Y47.630 E0.02024
G1 X4.505 Y47.266 E0.02005
G1 X4.730 Y46.931 E0.02024
G1 X21.190 Y27.226 E1.28854
G1 X21.520 Y26.905 E0.02309
G1 X21.905 Y26.653 E0.02309
G1 X22.335 Y26.479 E0.02328
G1 X22.787 Y26.392 E0.02309
G1 X238.011 Y26.382 E10.80123
G1 X238.330 Y26.404 E0.01605
G1 X238.639 Y26.467 E0.01585
G1 X238.938 Y26.571 E0.01585
G1 X239.223 Y26.716 E0.01605
G1 X239.471 Y26.886 E0.01509
G1 X239.696 Y27.086 E0.01509
G1 X239.893 Y27.312 E0.01509
G1 X240.063 Y27.565 E0.01528
G1 X240.197 Y27.834 E0.01509
G1 X240.296 Y28.118 E0.01509
G1 X240.359 Y28.412 E0.01509
G1 X240.384 Y28.716 E0.01528
G1 X240.378 Y90.430 E3.09719
G1 X228.440 Y180.903 E4.57981
G1 X228.329 Y181.369 E0.02405
G1 X228.127 Y181.803 E0.02405
G1 X227.955 Y182.054 E0.01528
G1 X227.749 Y182.284 E0.01547
G1 X227.519 Y182.483 E0.01528
G1 X227.265 Y182.651 E0.01528
G1 X226.991 Y182.785 E0.01528
G1 X226.699 Y182.884 E0.01547
G1 X226.401 Y182.944 E0.01528
G1 X226.093 Y182.965 E0.01547
G1 X6.580 Y182.965 E11.01646
G1 X6.261 Y182.943 E0.01605
G1 X5.952 Y182.879 E0.01585
G1 X5.653 Y182.775 E0.01585
G1 X5.368 Y182.631 E0.01605
G1 X5.117 Y182.458 E0.01528
G1 X4.890 Y182.255 E0.01528
G1 X4.691 Y182.025 E0.01528
G1 X4.522 Y181.771 E0.01528
G1 X4.388 Y181.498 E0.01528
G1 X4.290 Y181.210 E0.01528
G1 X4.229 Y180.912 E0.01528
G1 X4.207 Y180.608 E0.01528
G1 X4.207 Y48.479 E6.63103
G1 F5760
G1 X4.240 Y48.020 E-0.15908
G1 F5760
G1 X4.341 Y47.630 E-0.13967
G1 F5760
G1 X4.505 Y47.266 E-0.13836
G1 F5760
G1 X4.730 Y46.931 E-0.13967
G1 F5760
G1 X5.069 Y46.525 E-0.18322
G1 E-0.04000 F2100.00000
G1 X236.807 Y50.809 F7200.000
G1 E0.80000 F2100.00000
M204 S800
G1 F1800
G1 X237.707 Y50.809 E0.06874
G1 X237.707 Y89.959 E2.99021
G1 X236.807 Y89.959 E0.06874
G1 X236.807 Y50.869 E2.98563
M204 S1000
G1 X237.155 Y51.006 F7200.000
G1 X237.257 Y51.029 F7200.000
G1 F2400
G1 X237.257 Y89.739 E2.16865
G1 F5760
G1 X237.257 Y87.544 E-0.76000
G1 E-0.04000 F2100.00000
G1 X237.707 Y29.709 F7200.000
G1 E0.80000 F2100.00000
M204 S800
G1 F1800
G1 X23.307 Y29.709 E16.37550
G1 X23.307 Y29.059 E0.04965
G1 X237.707 Y29.059 E16.37550
G1 X237.707 Y29.649 E0.04506
M204 S1000
G1 X237.307 Y29.708 F7200.000
G1 X237.487 Y29.384 F7200.000
G1 F2400
G1 X23.527 Y29.384 E4.20313
G1 F5760
G1 X25.721 Y29.384 E-0.76000
G1 E-0.04000 F2100.00000
G1 X23.307 Y50.809 F7200.000
G1 E0.80000 F2100.00000
M204 S800
G1 F1800
G1 X24.207 Y50.809 E0.06874
G1 X24.207 Y89.959 E2.99021
G1 X23.307 Y89.959 E0.06874
G1 X23.307 Y50.869 E2.98563
M204 S1000
G1 X23.655 Y51.006 F7200.000
G1 X23.757 Y51.029 F7200.000
G1 F2400
G1 X23.757 Y89.739 E2.16865
G1 F5760
G1 X23.757 Y87.544 E-0.76000
G1 E-0.04000 F2100.00000
G1 Z0.550 F7200.000
G1 X7.844 Y179.302 F7200.000
G1 E0.80000 F2100.00000
M204 S800
G1 F2400
G1 X224.824 Y179.302 E11.20506
G1 X224.824 Y49.158 E6.72075
G1 X225.344 Y49.158 E0.02686
G1 X225.344 Y179.689 E6.74074
G1 X7.324 Y179.689 E11.25879
G1 X7.324 Y49.158 E6.74074
G1 X7.844 Y49.158 E0.02686
G1 X7.844 Y179.242 E6.71765
M204 S1000
G1 X8.284 Y178.862 F7200.000
M204 S800
G1 F1800
G1 X224.384 Y178.862 E16.50535
G1 X224.384 Y48.719 E9.94014
G1 X225.784 Y48.719 E0.10693
G1 X225.784 Y180.129 E10.03691
G1 X6.884 Y180.129 E16.71920
G1 X6.884 Y48.719 E10.03691
G1 X8.284 Y48.719 E0.10693
G1 X8.284 Y178.802 E9.93555
M204 S1000
G1 X8.285 Y179.262 F7200.000
G1 X7.584 Y179.512 F7200.000
G1 F2400
G1 X7.584 Y49.336 E1.70904
G1 F5760
G1 X7.584 Y51.530 E-0.76000
G1 E-0.04000 F2100.00000
G1 X225.084 Y49.336 F7200.000
G1 E0.80000 F2100.00000
G1 F2400
G1 X225.084 Y179.512 E1.70904
G1 F5760
G1 X225.084 Y177.317 E-0.76000
G1 E-0.04000 F2100.00000
G1 Z0.900 F7200.000
G1 X4.207 Y48.419 F7200.000
G1 E0.80000 F2100.00000
G1 F3000
G1 X4.240 Y48.020 E0.02005
G1 X4.341 Y47.630 E0.02024
G1 X4.505 Y47.266 E0.02005
G1 X4.730 Y46.931 E0.02024
G1 X21.190 Y27.226 E1.28854
G1 X21.520 Y26.905 E0.02309
G1 X21.905 Y26.653 E0.02309
G1 X22.335 Y26.479 E0.02328
G1 X22.787 Y26.392 E0.02309
G1 X238.011 Y26.382 E10.80123
G1 X238.330 Y26.404 E0.01605
G1 X238.639 Y26.467 E0.01585
G1 X238.938 Y26.571 E0.01585
G1 X239.223 Y26.716 E0.01605
G1 X239.471 Y26.886 E0.01509
G1 X239.696 Y27.086 E0.01509
G1 X239.893 Y27.312 E0.01509
G1 X240.063 Y27.565 E0.01528
G1 X240.197 Y27.834 E0.01509
G1 X240.296 Y28.118 E0.01509
G1 X240.359 Y28.412 E0.01509
G1 X240.384 Y28.716 E0.01528
G1 X240.378 Y90.430 E3.09719
G1 X228.440 Y180.903 E4.57981
G1 X228.329 Y181.369 E0.02405
G1 X228.127 Y181.803 E0.02405
G1 X227.955 Y182.054 E0.01528
G1 X227.749 Y182.284 E0.01547
G1 X227.519 Y182.483 E0.01528
G1 X227.265 Y182.651 E0.01528
G1 X226.991 Y182.785 E0.01528
G1 X226.699 Y182.884 E0.01547
G1 X226.401 Y182.944 E0.01528
G1 X226.093 Y182.965 E0.01547
G1 X6.580 Y182.965 E11.01646
G1 X6.261 Y182.943 E0.01605
G1 X5.952 Y182.879 E0.01585
G1 X5.653 Y182.775 E0.01585
G1 X5.368 Y182.631 E0.01605
G1 X5.117 Y182.458 E0.01528
G1 X4.890 Y182.255 E0.01528
G1 X4.691 Y182.025 E0.01528
G1 X4.522 Y181.771 E0.01528
G1 X4.388 Y181.498 E0.01528
G1 X4.290 Y181.210 E0.01528
G1 X4.229 Y180.912 E0.01528
G1 X4.207 Y180.608 E0.01528
G1 X4.207 Y48.479 E6.63103
G1 F5760
G1 X4.240 Y48.020 E-0.15908
G1 F5760
G1 X4.341 Y47.630 E-0.13967
G1 F5760
G1 X4.505 Y47.266 E-0.13836
G1 F5760
G1 X4.730 Y46.931 E-0.13967
G1 F5760
G1 X5.069 Y46.525 E-0.18322
G1 E-0.04000 F2100.00000
G1 X236.807 Y50.809 F7200.000
G1 E0.80000 F2100.00000
M204 S800
G1 F1800
G1 X237.707 Y50.809 E0.06874
G1 X237.707 Y89.959 E2.99021
G1 X236.807 Y89.959 E0.06874
G1 X236.807 Y50.869 E2.98563
M204 S1000
G1 X237.155 Y51.006 F7200.000
G1 X237.257 Y51.029 F7200.000
G1 F2400
G1 X237.257 Y89.739 E2.16865
G1 F5760
G1 X237.257 Y87.544 E-0.76000
G1 E-0.04000 F2100.00000
G1 X237.707 Y29.709 F7200.000
G1 E0.80000 F2100.00000
M204 S800
G1 F1800
G1 X23.307 Y29.709 E16.37550
G1 X23.307 Y29.059 E0.04965
G1 X237.707 Y29.059 E16.37550
G1 X237.707 Y29.649 E0.04506
M204 S1000
G1 X237.307 Y29.708 F7200.000
G1 X237.487 Y29.384 F7200.000
G1 F2400
G1 X23.527 Y29.384 E4.20313
G1 F5760
G1 X25.721 Y29.384 E-0.76000
G1 E-0.04000 F2100.00000
G1 X23.307 Y50.809 F7200.000
G1 E0.80000 F2100.00000
M204 S800
G1 F1800
G1 X24.207 Y50.809 E0.06874
G1 X24.207 Y89.959 E2.99021
G1 X23.307 Y89.959 E0.06874
G1 X23.307 Y50.869 E2.98563
M204 S1000
G1 X23.655 Y51.006 F7200.000
G1 X23.757 Y51.029 F7200.000
G1 F2400
G1 X23.757 Y89.739 E2.16865
G1 F5760
G1 X23.757 Y87.544 E-0.76000
G1 E-0.04000 F2100.00000
G1 Z0.900 F7200.000
G1 X7.844 Y179.100 F7200.000
G1 E0.80000 F2100.00000
M204 S800
G1 F2400
G1 X224.824 Y179.100 E11.20506
G1 X224.824 Y49.158 E6.71031
G1 X225.344 Y49.158 E0.02686
G1 X225.344 Y179.487 E6.73031
G1 X7.324 Y179.487 E11.25879
G1 X7.324 Y49.158 E6.73031
G1 X7.844 Y49.158 E0.02686
G1 X7.844 Y179.040 E6.70721
M204 S1000
G1 X8.284 Y178.660 F7200.000
M204 S800
G1 F1800
G1 X224.384 Y178.660 E16.50535
G1 X224.384 Y48.719 E9.92470
G1 X225.784 Y48.719 E0.10693
G1 X225.784 Y179.927 E10.02147
G1 X6.884 Y179.927 E16.71920
G1 X6.884 Y48.719 E10.02147
G1 X8.284 Y48.719 E0.10693
G1 X8.284 Y178.600 E9.92012
M204 S1000
G1 X8.285 Y179.060 F7200.000
G1 X7.584 Y179.310 F7200.000
G1 F2400
G1 X7.584 Y49.336 E1.70638
G1 F5760
G1 X7.584 Y51.530 E-0.76000
G1 E-0.04000 F2100.00000
G1 X225.084 Y49.336 F7200.000
G1 E0.80000 F2100.00000
G1 F2400
G1 X225.084 Y179.310 E1.70638
M106 S219.3
G1 F5760
G1 X225.084 Y177.115 E-0.76000
G1 E-0.04000 F2100.00000
G1 Z1.250 F7200.000
G1 Z1.750 F7200.000
G1 X236.807 Y89.959 F7200.000
G1 Z1.250 F7200.000
G1 E0.80000 F2100.00000
M204 S800
G1 F1800
G1 X236.807 Y50.809 E2.99021
G1 X237.707 Y50.809 E0.06874
G1 X237.707 Y89.959 E2.99021
G1 X236.867 Y89.959 E0.06416
M204 S1000
G1 X236.810 Y89.559 F7200.000
G1 X237.257 Y89.739 F7200.000
G1 F2400
G1 X237.257 Y51.029 E2.16865
G1 F5760
G1 X237.257 Y53.223 E-0.76000
G1 E-0.04000 F2100.00000
G1 Z1.750 F7200.000
G1 X237.707 Y29.709 F7200.000
G1 Z1.250 F7200.000
G1 E0.80000 F2100.00000
M204 S800
G1 F1800
G1 X23.307 Y29.709 E16.37550
G1 X23.307 Y29.059 E0.04965
G1 X237.707 Y29.059 E16.37550
G1 X237.707 Y29.649 E0.04506
M204 S1000
G1 X237.307 Y29.708 F7200.000
G1 X237.487 Y29.384 F7200.000
G1 F2400
G1 X23.527 Y29.384 E4.20313
G1 F5760
G1 X25.721 Y29.384 E-0.76000
G1 E-0.04000 F2100.00000
G1 Z1.750 F7200.000
G1 X23.307 Y50.809 F7200.000
G1 Z1.250 F7200.000
G1 E0.80000 F2100.00000
M204 S800
G1 F1800
G1 X24.207 Y50.809 E0.06874
G1 X24.207 Y89.959 E2.99021
G1 X23.307 Y89.959 E0.06874
G1 X23.307 Y50.869 E2.98563
M204 S1000
G1 X23.655 Y51.006 F7200.000
G1 X23.757 Y51.029 F7200.000
G1 F2400
G1 X23.757 Y89.739 E2.16865
G1 F5760
G1 X23.757 Y87.544 E-0.76000
G1 E-0.04000 F2100.00000
G1 Z1.750 F7200.000
G1 X7.844 Y178.898 F7200.000
G1 Z1.250 F7200.000
G1 E0.80000 F2100.00000
M204 S800
G1 F2400
G1 X224.824 Y178.898 E11.20506
G1 X224.824 Y49.158 E6.69988
G1 X225.344 Y49.158 E0.02686
G1 X225.344 Y179.285 E6.71987
G1 X7.324 Y179.285 E11.25879
G1 X7.324 Y49.158 E6.71987
G1 X7.844 Y49.158 E0.02686
G1 X7.844 Y178.838 E6.69678
M204 S1000
G1 X8.284 Y178.458 F7200.000
M204 S800
G1 F1800
G1 X224.384 Y178.458 E16.50535
G1 X224.384 Y48.719 E9.90927
G1 X225.784 Y48.719 E0.10693
G1 X225.784 Y179.725 E10.00604
G1 X6.884 Y179.725 E16.71920
G1 X6.884 Y48.719 E10.00604
G1 X8.284 Y48.719 E0.10693
G1 X8.284 Y178.398 E9.90469
M204 S1000
G1 X8.285 Y178.858 F7200.000
G1 X7.584 Y179.108 F7200.000
G1 F2400
G1 X7.584 Y49.336 E1.70373
G1 F5760
G1 X7.584 Y51.530 E-0.76000
G1 E-0.04000 F2100.00000
G1 Z1.750 F7200.000
G1 X225.084 Y49.336 F7200.000
G1 Z1.250 F7200.000
G1 E0.80000 F2100.00000
G1 F2400
G1 X225.084 Y179.108 E1.70373
G1 F5760
G1 X225.084 Y176.913 E-0.76000
G1 E-0.04000 F2100.00000
G1 Z1.750 F7200.000
G1 X236.807 Y89.959 F7200.000
G1 Z1.600 F7200.000
G1 E0.80000 F2100.00000
M204 S800
G1 F1800
G1 X236.807 Y50.809 E2.99021
G1 X237.707 Y50.809 E0.06874
G1 X237.707 Y89.959 E2.99021
G1 X236.867 Y89.959 E0.06416
M204 S1000
G1 X236.810 Y89.559 F7200.000
G1 X237.257 Y89.739 F7200.000
G1 F2400
G1 X237.257 Y51.029 E2.16865
G1 F5760
G1 X237.257 Y53.223 E-0.76000
G1 E-0.04000 F2100.00000
G1 Z2.100 F7200.000
G1 X237.707 Y29.709 F7200.000
G1 Z1.600 F7200.000
G1 E0.80000 F2100.00000
M204 S800
G1 F1800
G1 X23.307 Y29.709 E16.37550
G1 X23.307 Y29.059 E0.04965
G1 X237.707 Y29.059 E16.37550
G1 X237.707 Y29.649 E0.04506
M204 S1000
G1 X237.307 Y29.708 F7200.000
G1 X237.487 Y29.384 F7200.000
G1 F2400
G1 X23.527 Y29.384 E4.20313
G1 F5760
G1 X25.721 Y29.384 E-0.76000
G1 E-0.04000 F2100.00000
G1 Z2.100 F7200.000
G1 X23.307 Y50.809 F7200.000
G1 Z1.600 F7200.000
G1 E0.80000 F2100.00000
M204 S800
G1 F1800
G1 X24.207 Y50.809 E0.06874
G1 X24.207 Y89.959 E2.99021
G1 X23.307 Y89.959 E0.06874
G1 X23.307 Y50.869 E2.98563
M204 S1000
G1 X23.655 Y51.006 F7200.000
G1 X23.757 Y51.029 F7200.000
G1 F2400
G1 X23.757 Y89.739 E2.16865
G1 F5760
G1 X23.757 Y87.544 E-0.76000
G1 E-0.04000 F2100.00000
G1 Z2.100 F7200.000
G1 X7.844 Y178.696 F7200.000
G1 Z1.600 F7200.000
G1 E0.80000 F2100.00000
M204 S800
G1 F2400
G1 X224.824 Y178.696 E11.20506
G1 X224.824 Y49.158 E6.68944
G1 X225.344 Y49.158 E0.02686
G1 X225.344 Y179.083 E6.70943
G1 X7.324 Y179.083 E11.25879
G1 X7.324 Y49.158 E6.70943
G1 X7.844 Y49.158 E0.02686
G1 X7.844 Y178.636 E6.68634
