; generated by Slic3r 1.33.8 on 2018-04-06 at 20:13:46

; external perimeters extrusion width = 0.60mm
; perimeters extrusion width = 0.43mm
; infill extrusion width = 0.70mm
; solid infill extrusion width = 0.70mm
; top infill extrusion width = 0.43mm

M107
M115 U3.0.12 ; tell printer latest fw version
M83  ; extruder relative mode
M104 S215 ; set extruder temp
M140 S55 ; set bed temp
M190 S55 ; wait for bed temp
M109 S215 ; wait for extruder temp
G28 W ; home all without mesh bed level
G80 ; mesh bed leveling
G1 Y-3.0 F1000.0 ; go outside pritn area
G1 X60.0 E9.0  F1000.0 ; intro line
G1 X100.0 E12.5  F1000.0 ; intro line
G21 ; set units to millimeters
G90 ; use absolute coordinates
M83 ; use relative distances for extrusion
G1 E-0.80000 F2100.00000
G1 Z0.200 F7200.000
G1 X21.464 Y37.462 F7200.000
G1 E0.80000 F2100.00000
M204 S1000
G1 F2100
G1 X236.667 Y37.453 E6.74753
G1 X237.024 Y37.481 E0.01122
G1 X237.376 Y37.563 E0.01133
G1 X237.711 Y37.697 E0.01133
G1 X238.023 Y37.881 E0.01133
G1 X238.244 Y38.055 E0.00883
G1 X238.445 Y38.258 E0.00895
G1 X238.621 Y38.483 E0.00895
G1 X238.769 Y38.727 E0.00895
G1 X238.884 Y38.984 E0.00883
G1 X238.970 Y39.256 E0.00895
G1 X239.022 Y39.537 E0.00895
G1 X239.040 Y39.822 E0.00895
G1 X239.040 Y187.338 E4.62527
G1 X239.012 Y187.699 E0.01133
G1 X238.930 Y188.047 E0.01122
G1 X238.797 Y188.379 E0.01122
G1 X238.613 Y188.690 E0.01133
G1 X238.436 Y188.914 E0.00895
G1 X238.233 Y189.115 E0.00895
G1 X238.008 Y189.291 E0.00895
G1 X237.763 Y189.438 E0.00895
G1 X237.506 Y189.553 E0.00883
G1 X237.234 Y189.638 E0.00895
G1 X236.953 Y189.690 E0.00895
G1 X236.668 Y189.708 E0.00895
G1 X21.659 Y189.708 E6.74145
G1 X21.303 Y189.680 E0.01122
G1 X20.951 Y189.598 E0.01133
G1 X20.615 Y189.464 E0.01133
G1 X20.304 Y189.280 E0.01133
G1 X20.082 Y189.106 E0.00883
G1 X19.881 Y188.904 E0.00895
G1 X19.707 Y188.682 E0.00883
G1 X19.560 Y188.437 E0.00895
G1 X19.443 Y188.181 E0.00883
G1 X19.357 Y187.909 E0.00895
G1 X19.305 Y187.632 E0.00883
G1 X19.286 Y187.347 E0.00895
G1 X19.286 Y39.812 E4.62587
G1 X19.328 Y39.384 E0.01348
G1 X19.448 Y38.967 E0.01360
G1 X19.640 Y38.582 E0.01348
G1 X19.901 Y38.236 E0.01360
G1 X20.217 Y37.944 E0.01348
G1 X20.580 Y37.715 E0.01348
G1 X20.982 Y37.553 E0.01360
G1 X21.405 Y37.468 E0.01351
G1 F5760
G1 X23.599 Y37.467 E-0.76000
G1 E-0.04000 F2100.00000
G1 X21.873 Y186.291 F7200.000
G1 E0.80000 F2100.00000
G1 F1260
G1 X236.453 Y186.291 E6.72801
G1 X236.453 Y187.121 E0.02602
G1 X21.873 Y187.121 E6.72801
G1 X21.873 Y186.351 E0.02414
G1 X22.273 Y186.291 F7200.000
G1 X22.062 Y186.706 F7200.000
G1 F1680
G1 X236.265 Y186.706 E7.30259
G1 F5760
G1 X234.070 Y186.706 E-0.76000
G1 E-0.04000 F2100.00000
G1 X236.076 Y164.993 F7200.000
G1 E0.80000 F2100.00000
G1 F1680
G1 X235.750 Y164.993 E0.01022
G1 X235.750 Y40.418 E3.90599
G1 X236.076 Y40.418 E0.01022
G1 X236.076 Y164.933 E3.90411
G1 X236.453 Y165.371 F7200.000
G1 F1260
G1 X235.373 Y165.371 E0.03386
G1 X235.373 Y40.041 E3.92963
G1 X236.453 Y40.041 E0.03386
G1 X236.453 Y165.311 E3.92775
G1 X236.106 Y165.172 F7200.000
G1 F5760
G1 X235.373 Y165.371 E-0.37464
G1 F5760
G1 X235.373 Y164.258 E-0.38536
G1 E-0.04000 F2100.00000
G1 X22.576 Y164.993 F7200.000
G1 E0.80000 F2100.00000
G1 F1680
G1 X22.250 Y164.993 E0.01022
G1 X22.250 Y40.418 E3.90599
G1 X22.576 Y40.418 E0.01022
G1 X22.576 Y164.933 E3.90411
G1 X22.953 Y165.371 F7200.000
G1 F1260
G1 X21.873 Y165.371 E0.03386
G1 X21.873 Y40.041 E3.92963
G1 X22.953 Y40.041 E0.03386
G1 X22.953 Y165.311 E3.92775
G1 X22.606 Y165.172 F7200.000
M106 S234.6
M104 S210 ; set temperature
G1 F5760
G1 X21.873 Y165.371 E-0.37464
G1 F5760
G1 X21.873 Y164.258 E-0.38536
G1 E-0.04000 F2100.00000
G1 Z0.550 F7200.000
G1 X19.286 Y39.831 F7200.000
G1 E0.80000 F2100.00000
G1 F3000
G1 X19.331 Y39.373 E0.02309
G1 X19.464 Y38.928 E0.02328
G1 X19.681 Y38.518 E0.02328
G1 X19.974 Y38.158 E0.02328
G1 X20.331 Y37.862 E0.02328
G1 X20.739 Y37.641 E0.02328
G1 X21.182 Y37.503 E0.02328
G1 X21.643 Y37.454 E0.02328
G1 X236.667 Y37.453 E10.79117
G1 X237.016 Y37.480 E0.01757
G1 X237.361 Y37.558 E0.01776
G1 X237.691 Y37.687 E0.01776
G1 X237.998 Y37.863 E0.01776
G1 X238.224 Y38.038 E0.01433
G1 X238.430 Y38.241 E0.01452
G1 X238.610 Y38.467 E0.01452
G1 X238.761 Y38.714 E0.01452
G1 X238.882 Y38.977 E0.01452
G1 X238.968 Y39.249 E0.01433
G1 X239.022 Y39.533 E0.01452
G1 X239.040 Y39.822 E0.01452
G1 X239.040 Y187.338 E7.40324
G1 X239.013 Y187.687 E0.01757
G1 X238.934 Y188.032 E0.01776
G1 X238.805 Y188.362 E0.01776
G1 X238.630 Y188.665 E0.01757
G1 X238.456 Y188.891 E0.01433
G1 X238.253 Y189.098 E0.01452
G1 X238.027 Y189.278 E0.01452
G1 X237.780 Y189.429 E0.01452
G1 X237.517 Y189.549 E0.01452
G1 X237.245 Y189.635 E0.01433
G1 X236.961 Y189.689 E0.01452
G1 X236.672 Y189.708 E0.01452
G1 X21.659 Y189.708 E10.79060
G1 X21.310 Y189.681 E0.01757
G1 X20.965 Y189.603 E0.01776
G1 X20.636 Y189.474 E0.01776
G1 X20.329 Y189.298 E0.01776
G1 X20.102 Y189.123 E0.01433
G1 X19.896 Y188.921 E0.01452
G1 X19.716 Y188.694 E0.01452
G1 X19.567 Y188.451 E0.01433
G1 X19.447 Y188.191 E0.01433
G1 X19.359 Y187.916 E0.01452
G1 X19.306 Y187.636 E0.01433
G1 X19.286 Y187.347 E0.01452
G1 X19.286 Y39.891 E7.40023
G1 F5760
G1 X19.331 Y39.373 E-0.18008
G1 F5760
G1 X19.464 Y38.928 E-0.16069
G1 F5760
G1 X19.681 Y38.518 E-0.16069
G1 F5760
G1 X19.974 Y38.158 E-0.16069
G1 F5760
G1 X20.191 Y37.978 E-0.09784
G1 E-0.04000 F2100.00000
G1 X21.963 Y186.381 F7200.000
G1 E0.80000 F2100.00000
M204 S800
G1 F1800
G1 X236.363 Y186.381 E16.37550
G1 X236.363 Y187.031 E0.04965
G1 X21.963 Y187.031 E16.37550
G1 X21.963 Y186.441 E0.04506
M204 S1000
G1 X22.363 Y186.381 F7200.000
G1 X22.183 Y186.706 F7200.000
G1 F2400
G1 X236.143 Y186.706 E4.20313
G1 F5760
G1 X233.949 Y186.706 E-0.76000
G1 E-0.04000 F2100.00000
G1 X236.363 Y165.281 F7200.000
G1 E0.80000 F2100.00000
M204 S800
G1 F1800
G1 X235.463 Y165.281 E0.06874
G1 X235.463 Y40.131 E9.55874
G1 X236.363 Y40.131 E0.06874
G1 X236.363 Y165.221 E9.55416
M204 S1000
G1 X236.016 Y165.081 F7200.000
G1 X235.913 Y165.061 F7200.000
G1 F2400
G1 X235.913 Y40.351 E6.98660
G1 F5760
G1 X235.913 Y42.545 E-0.76000
G1 E-0.04000 F2100.00000
G1 X22.863 Y40.131 F7200.000
G1 E0.80000 F2100.00000
M204 S800
G1 F1800
G1 X22.863 Y165.281 E9.55874
G1 X21.963 Y165.281 E0.06874
G1 X21.963 Y40.131 E9.55874
G1 X22.803 Y40.131 E0.06416
M204 S1000
G1 X22.862 Y40.531 F7200.000
G1 X22.413 Y40.351 F7200.000
G1 F2400
G1 X22.413 Y165.061 E6.98660
M106 S237.15
G1 F5760
G1 X22.413 Y162.866 E-0.76000
G1 E-0.04000 F2100.00000
G1 Z0.900 F7200.000
G1 X19.286 Y165.061 F7200.000
G1 E0.80000 F2100.00000
G1 F3000
G1 X19.286 Y39.808 E6.28593
G1 X19.309 Y39.500 E0.01547
G1 X19.372 Y39.198 E0.01547
G1 X19.473 Y38.907 E0.01547
G1 X19.611 Y38.631 E0.01547
G1 X19.783 Y38.376 E0.01547
G1 X19.987 Y38.145 E0.01547
G1 X20.220 Y37.942 E0.01547
G1 X20.476 Y37.771 E0.01547
G1 X20.753 Y37.635 E0.01547
G1 X21.045 Y37.535 E0.01547
G1 X21.347 Y37.475 E0.01547
G1 X21.658 Y37.453 E0.01566
G1 X236.671 Y37.453 E10.79060
G1 X236.982 Y37.475 E0.01566
G1 X237.284 Y37.536 E0.01547
G1 X237.576 Y37.636 E0.01547
G1 X237.856 Y37.774 E0.01566
G1 X238.112 Y37.946 E0.01547
G1 X238.346 Y38.152 E0.01566
G1 X238.552 Y38.387 E0.01566
G1 X238.723 Y38.644 E0.01547
G1 X238.859 Y38.920 E0.01547
G1 X238.958 Y39.212 E0.01547
G1 X239.019 Y39.514 E0.01547
G1 X239.040 Y39.826 E0.01566
G1 X239.040 Y187.342 E7.40324
G1 X239.019 Y187.650 E0.01547
G1 X238.958 Y187.952 E0.01547
G1 X238.858 Y188.243 E0.01547
G1 X238.719 Y188.523 E0.01566
G1 X238.548 Y188.779 E0.01547
G1 X238.342 Y189.014 E0.01566
G1 X238.107 Y189.219 E0.01566
G1 X237.850 Y189.390 E0.01547
G1 X237.574 Y189.526 E0.01547
G1 X237.282 Y189.626 E0.01547
G1 X236.979 Y189.687 E0.01547
G1 X236.668 Y189.708 E0.01566
G1 X21.663 Y189.708 E10.79022
G1 X21.401 Y189.693 E0.01318
G1 X21.002 Y189.614 E0.02043
G1 X20.622 Y189.467 E0.02043
G1 X20.272 Y189.258 E0.02043
G1 X19.961 Y188.990 E0.02062
G1 X19.703 Y188.675 E0.02043
G1 X19.502 Y188.321 E0.02043
G1 X19.365 Y187.938 E0.02043
G1 X19.295 Y187.533 E0.02062
G1 X19.286 Y165.121 E1.12480
G1 F5760
G1 X19.286 Y162.926 E-0.76000
G1 E-0.04000 F2100.00000
G1 X21.963 Y186.381 F7200.000
G1 E0.80000 F2100.00000
M204 S800
G1 F1800
G1 X236.363 Y186.381 E16.37550
G1 X236.363 Y187.031 E0.04965
G1 X21.963 Y187.031 E16.37550
G1 X21.963 Y186.441 E0.04506
M204 S1000
G1 X22.363 Y186.381 F7200.000
G1 X22.183 Y186.706 F7200.000
G1 F2400
G1 X236.143 Y186.706 E4.20313
G1 F5760
G1 X233.949 Y186.706 E-0.76000
G1 E-0.04000 F2100.00000
G1 X236.363 Y165.281 F7200.000
G1 E0.80000 F2100.00000
M204 S800
G1 F1800
G1 X235.463 Y165.281 E0.06874
G1 X235.463 Y40.131 E9.55874
G1 X236.363 Y40.131 E0.06874
G1 X236.363 Y165.221 E9.55416
M204 S1000
G1 X236.016 Y165.081 F7200.000
G1 X235.913 Y165.061 F7200.000
G1 F2400
G1 X235.913 Y40.351 E6.98660
G1 F5760
G1 X235.913 Y42.545 E-0.76000
G1 E-0.04000 F2100.00000
G1 X22.863 Y40.131 F7200.000
G1 E0.80000 F2100.00000
M204 S800
G1 F1800
G1 X22.863 Y165.281 E9.55874
G1 X21.963 Y165.281 E0.06874
G1 X21.963 Y40.131 E9.55874
G1 X22.803 Y40.131 E0.06416
M204 S1000
G1 X22.862 Y40.531 F7200.000
G1 X22.413 Y40.351 F7200.000
G1 F2400
G1 X22.413 Y165.061 E6.98660
M106 S244.8
G1 F5760
G1 X22.413 Y162.866 E-0.76000
G1 E-0.04000 F2100.00000
G1 Z1.250 F7200.000
G1 Z1.750 F7200.000
G1 X21.963 Y186.381 F7200.000
G1 Z1.250 F7200.000
G1 E0.80000 F2100.00000
M204 S800
G1 F1800
G1 X236.363 Y186.381 E16.37550
G1 X236.363 Y187.031 E0.04965
G1 X21.963 Y187.031 E16.37550
G1 X21.963 Y186.441 E0.04506
M204 S1000
G1 X22.363 Y186.381 F7200.000
G1 X22.183 Y186.706 F7200.000
G1 F2400
G1 X236.143 Y186.706 E4.20313
G1 F5760
G1 X233.949 Y186.706 E-0.76000
G1 E-0.04000 F2100.00000
G1 Z1.750 F7200.000
G1 X236.363 Y165.281 F7200.000
G1 Z1.250 F7200.000
G1 E0.80000 F2100.00000
M204 S800
G1 F1800
G1 X235.463 Y165.281 E0.06874
G1 X235.463 Y40.131 E9.55874
G1 X236.363 Y40.131 E0.06874
G1 X236.363 Y165.221 E9.55416
M204 S1000
G1 X236.016 Y165.081 F7200.000
G1 X235.913 Y165.061 F7200.000
G1 F2400
G1 X235.913 Y40.351 E6.98660
G1 F5760
G1 X235.913 Y42.545 E-0.76000
G1 E-0.04000 F2100.00000
G1 Z1.750 F7200.000
G1 X22.863 Y40.131 F7200.000
G1 Z1.250 F7200.000
G1 E0.80000 F2100.00000
M204 S800
G1 F1800
G1 X22.863 Y165.281 E9.55874
G1 X21.963 Y165.281 E0.06874
G1 X21.963 Y40.131 E9.55874
G1 X22.803 Y40.131 E0.06416
M204 S1000
G1 X22.862 Y40.531 F7200.000
G1 X22.413 Y40.351 F7200.000
G1 F2400
G1 X22.413 Y165.061 E6.98660
G1 F5760
G1 X22.413 Y162.866 E-0.76000
G1 E-0.04000 F2100.00000
G1 Z1.750 F7200.000
G1 X21.963 Y186.381 F7200.000
G1 Z1.600 F7200.000
G1 E0.80000 F2100.00000
M204 S800
G1 F1800
G1 X236.363 Y186.381 E16.37550
G1 X236.363 Y187.031 E0.04965
G1 X21.963 Y187.031 E16.37550
G1 X21.963 Y186.441 E0.04506
M204 S1000
G1 X22.363 Y186.381 F7200.000
G1 X22.183 Y186.706 F7200.000
G1 F2400
G1 X236.143 Y186.706 E4.20313
G1 F5760
G1 X233.949 Y186.706 E-0.76000
G1 E-0.04000 F2100.00000
G1 Z2.100 F7200.000
G1 X236.363 Y165.281 F7200.000
G1 Z1.600 F7200.000
G1 E0.80000 F2100.00000
M204 S800
G1 F1800
G1 X235.463 Y165.281 E0.06874
G1 X235.463 Y40.131 E9.55874
G1 X236.363 Y40.131 E0.06874
G1 X236.363 Y165.221 E9.55416
M204 S1000
G1 X236.016 Y165.081 F7200.000
G1 X235.913 Y165.061 F7200.000
G1 F2400
G1 X235.913 Y40.351 E6.98660
G1 F5760
G1 X235.913 Y42.545 E-0.76000
G1 E-0.04000 F2100.00000
G1 Z2.100 F7200.000
G1 X22.863 Y40.131 F7200.000
G1 Z1.600 F7200.000
G1 E0.80000 F2100.00000
M204 S800
G1 F1800
G1 X22.863 Y165.281 E9.55874
G1 X21.963 Y165.281 E0.06874
G1 X21.963 Y40.131 E9.55874
G1 X22.803 Y40.131 E0.06416
M204 S1000
G1 X22.862 Y40.531 F7200.000
G1 X22.413 Y40.351 F7200.000
G1 F2400
G1 X22.413 Y165.061 E6.98660
G1 F5760
G1 X22.413 Y162.866 E-0.76000
G1 E-0.04000 F2100.00000
G1 Z2.100 F7200.000
G1 X21.963 Y186.381 F7200.000
G1 Z1.950 F7200.000
G1 E0.80000 F2100.00000
M204 S800
G1 F1800
G1 X236.363 Y186.381 E16.37550
G1 X236.363 Y187.031 E0.04965
G1 X21.963 Y187.031 E16.37550
G1 X21.963 Y186.441 E0.04506
M204 S1000
G1 X22.363 Y186.381 F7200.000
G1 X22.183 Y186.706 F7200.000
G1 F2400
G1 X236.143 Y186.706 E4.20313
G1 F5760
G1 X233.949 Y186.706 E-0.76000
G1 E-0.04000 F2100.00000
G1 Z2.450 F7200.000
G1 X236.363 Y165.281 F7200.000
G1 Z1.950 F7200.000
G1 E0.80000 F2100.00000
M204 S800
G1 F1800
G1 X235.463 Y165.281 E0.06874
G1 X235.463 Y40.131 E9.55874
G1 X236.363 Y40.131 E0.06874
G1 X236.363 Y165.221 E9.55416
M204 S1000
G1 X236.016 Y165.081 F7200.000
G1 X235.913 Y165.061 F7200.000
G1 F2400
G1 X235.913 Y40.351 E6.98660
G1 F5760
G1 X235.913 Y42.545 E-0.76000
G1 E-0.04000 F2100.00000
G1 Z2.450 F7200.000
G1 X22.863 Y40.131 F7200.000
G1 Z1.950 F7200.000
G1 E0.80000 F2100.00000
M204 S800
G1 F1800
G1 X22.863 Y165.281 E9.55874
G1 X21.963 Y165.281 E0.06874
G1 X21.963 Y40.131 E9.55874
G1 X22.803 Y40.131 E0.06416
M204 S1000
G1 X22.862 Y40.531 F7200.000
G1 X22.413 Y40.351 F7200.000
G1 F2400
G1 X22.413 Y165.061 E6.98660
G1 F5760
G1 X22.413 Y162.866 E-0.76000
G1 E-0.04000 F2100.00000
G1 Z2.450 F7200.000
G1 X21.963 Y186.381 F7200.000
G1 Z2.300 F7200.000
G1 E0.80000 F2100.00000
M204 S800
G1 F1800
G1 X236.363 Y186.381 E16.37550
G1 X236.363 Y187.031 E0.04965
G1 X21.963 Y187.031 E16.37550
G1 X21.963 Y186.441 E0.04506
M204 S1000
G1 X22.363 Y186.381 F7200.000
G1 X22.183 Y186.706 F7200.000
G1 F2400
G1 X236.143 Y186.706 E4.20313
G1 F5760
G1 X233.949 Y186.706 E-0.76000
G1 E-0.04000 F2100.00000
G1 Z2.800 F7200.000
G1 X236.363 Y165.281 F7200.000
G1 Z2.300 F7200.000
G1 E0.80000 F2100.00000
M204 S800
G1 F1800
G1 X235.463 Y165.281 E0.06874
G1 X235.463 Y40.131 E9.55874
G1 X236.363 Y40.131 E0.06874
G1 X236.363 Y165.221 E9.55416
M204 S1000
G1 X236.016 Y165.081 F7200.000
G1 X235.913 Y165.061 F7200.000
G1 F2400
G1 X235.913 Y40.351 E6.98660
G1 F5760
G1 X235.913 Y42.545 E-0.76000
G1 E-0.04000 F2100.00000
G1 Z2.800 F7200.000
G1 X22.863 Y40.131 F7200.000
G1 Z2.300 F7200.000
G1 E0.80000 F2100.00000
M204 S800
G1 F1800
G1 X22.863 Y165.281 E9.55874
G1 X21.963 Y165.281 E0.06874
G1 X21.963 Y40.131 E9.55874
G1 X22.803 Y40.131 E0.06416
M204 S1000
G1 X22.862 Y40.531 F7200.000
G1 X22.413 Y40.351 F7200.000
G1 F2400
G1 X22.413 Y165.061 E6.98660
G1 F5760
G1 X22.413 Y162.866 E-0.76000
G1 E-0.04000 F2100.00000
G1 Z2.800 F7200.000
G1 X21.963 Y186.381 F7200.000
G1 Z2.650 F7200.000
G1 E0.80000 F2100.00000
M204 S800
G1 F1800
G1 X236.363 Y186.381 E16.37550
G1 X236.363 Y187.031 E0.04965
G1 X21.963 Y187.031 E16.37550
G1 X21.963 Y186.441 E0.04506
M204 S1000
G1 X22.363 Y186.381 F7200.000
G1 X22.183 Y186.706 F7200.000
G1 F2400
G1 X236.143 Y186.706 E4.20313
G1 F5760
G1 X233.949 Y186.706 E-0.76000
G1 E-0.04000 F2100.00000
G1 Z3.150 F7200.000
G1 X236.363 Y165.281 F7200.000
G1 Z2.650 F7200.000
G1 E0.80000 F2100.00000
M204 S800
G1 F1800
G1 X235.463 Y165.281 E0.06874
G1 X235.463 Y40.131 E9.55874
G1 X236.363 Y40.131 E0.06874
G1 X236.363 Y165.221 E9.55416
M204 S1000
G1 X236.016 Y165.081 F7200.000
G1 X235.913 Y165.061 F7200.000
G1 F2400
G1 X235.913 Y40.351 E6.98660
G1 F5760
G1 X235.913 Y42.545 E-0.76000
G1 E-0.04000 F2100.00000
G1 Z3.150 F7200.000
G1 X22.863 Y40.131 F7200.000
G1 Z2.650 F7200.000
G1 E0.80000 F2100.00000
M204 S800
G1 F1800
G1 X22.863 Y165.281 E9.55874
G1 X21.963 Y165.281 E0.06874
G1 X21.963 Y40.131 E9.55874
G1 X22.803 Y40.131 E0.06416
M204 S1000
G1 X22.862 Y40.531 F7200.000
G1 X22.413 Y40.351 F7200.000
G1 F2400
G1 X22.413 Y165.061 E6.98660
G1 F5760
G1 X22.413 Y162.866 E-0.76000
G1 E-0.04000 F2100.00000
G1 Z3.150 F7200.000
G1 X21.963 Y186.381 F7200.000
G1 Z3.000 F7200.000
G1 E0.80000 F2100.00000
M204 S800
G1 F1800
G1 X236.363 Y186.381 E16.37550
G1 X236.363 Y187.031 E0.04965
G1 X21.963 Y187.031 E16.37550
G1 X21.963 Y186.441 E0.04506
M204 S1000
G1 X22.363 Y186.381 F7200.000
G1 X22.183 Y186.706 F7200.000
G1 F2400
G1 X236.143 Y186.706 E4.20313
G1 F5760
G1 X233.949 Y186.706 E-0.76000
G1 E-0.04000 F2100.00000
G1 Z3.500 F7200.000
G1 X236.363 Y165.281 F7200.000
G1 Z3.000 F7200.000
G1 E0.80000 F2100.00000
M204 S800
G1 F1800
G1 X235.463 Y165.281 E0.06874
G1 X235.463 Y40.131 E9.55874
G1 X236.363 Y40.131 E0.06874
G1 X236.363 Y165.221 E9.55416
M204 S1000
G1 X236.016 Y165.081 F7200.000
G1 X235.913 Y165.061 F7200.000
G1 F2400
G1 X235.913 Y40.351 E6.98660
G1 F5760
