; generated by Slic3r 1.33.8 on 2018-04-12 at 18:13:01

; external perimeters extrusion width = 0.60mm
; perimeters extrusion width = 0.43mm
; infill extrusion width = 0.70mm
; solid infill extrusion width = 0.70mm
; top infill extrusion width = 0.43mm

M107
M115 U3.0.12 ; tell printer latest fw version
M83  ; extruder relative mode
M104 S215 ; set extruder temp
M140 S55 ; set bed temp
M190 S55 ; wait for bed temp
M109 S215 ; wait for extruder temp
G28 W ; home all without mesh bed level
G80 ; mesh bed leveling
G1 Y-3.0 F1000.0 ; go outside pritn area
G1 X60.0 E9.0  F1000.0 ; intro line
G1 X100.0 E12.5  F1000.0 ; intro line
G21 ; set units to millimeters
G90 ; use absolute coordinates
M83 ; use relative distances for extrusion
G1 E-0.80000 F2100.00000
G1 Z0.200 F7200.000
G1 X15.084 Y49.517 F7200.000
G1 E0.80000 F2100.00000
M204 S1000
G1 F2100
G1 X15.800 Y48.961 E0.02844
G1 X16.562 Y48.469 E0.02844
G1 X17.365 Y48.046 E0.02844
G1 X18.208 Y47.692 E0.02869
G1 X19.072 Y47.416 E0.02844
G1 X19.957 Y47.216 E0.02844
G1 X20.863 Y47.093 E0.02869
G1 X21.769 Y47.051 E0.02844
G1 X236.878 Y47.051 E6.74459
G1 X237.634 Y47.085 E0.02370
G1 X238.392 Y47.174 E0.02395
G1 X239.142 Y47.319 E0.02395
G1 X239.879 Y47.519 E0.02395
G1 X240.600 Y47.772 E0.02395
G1 X241.300 Y48.078 E0.02395
G1 X241.969 Y48.430 E0.02370
G1 X242.616 Y48.835 E0.02395
G1 X243.095 Y49.179 E0.01846
G1 X243.558 Y49.554 E0.01871
G1 X243.994 Y49.951 E0.01846
G1 X244.407 Y50.371 E0.01846
G1 X244.795 Y50.814 E0.01846
G1 X245.162 Y51.284 E0.01871
G1 X245.497 Y51.768 E0.01846
G1 X245.804 Y52.271 E0.01846
G1 X246.082 Y52.790 E0.01846
G1 X246.330 Y53.324 E0.01846
G1 X246.547 Y53.871 E0.01846
G1 X246.736 Y54.438 E0.01871
G1 X246.889 Y55.006 E0.01846
G1 X247.010 Y55.582 E0.01846
G1 X247.099 Y56.164 E0.01846
G1 X247.154 Y56.759 E0.01871
G1 X247.176 Y57.428 E0.02100
G1 X247.176 Y119.008 E1.93078
G1 X243.248 Y197.714 E2.47085
G1 X243.179 Y198.395 E0.02146
G1 X243.066 Y199.069 E0.02146
G1 X242.908 Y199.735 E0.02146
G1 X242.707 Y200.389 E0.02146
G1 X242.463 Y201.029 E0.02146
G1 X242.178 Y201.651 E0.02146
G1 X241.852 Y202.252 E0.02146
G1 X241.487 Y202.831 E0.02146
G1 X241.119 Y203.341 E0.01971
G1 X240.726 Y203.821 E0.01946
G1 X240.305 Y204.277 E0.01946
G1 X239.851 Y204.713 E0.01971
G1 X239.379 Y205.115 E0.01946
G1 X238.876 Y205.493 E0.01971
G1 X238.352 Y205.839 E0.01971
G1 X237.814 Y206.150 E0.01946
G1 X237.259 Y206.427 E0.01946
G1 X236.681 Y206.674 E0.01971
G1 X236.097 Y206.884 E0.01946
G1 X235.493 Y207.059 E0.01971
G1 X234.888 Y207.197 E0.01946
G1 X234.268 Y207.299 E0.01971
G1 X233.642 Y207.363 E0.01971
G1 X233.014 Y207.389 E0.01971
G1 X13.315 Y207.390 E6.88852
G1 X12.560 Y207.356 E0.02370
G1 X11.801 Y207.267 E0.02395
G1 X11.051 Y207.122 E0.02395
G1 X10.314 Y206.922 E0.02395
G1 X9.593 Y206.669 E0.02395
G1 X8.901 Y206.366 E0.02370
G1 X8.225 Y206.010 E0.02395
G1 X7.577 Y205.606 E0.02395
G1 X7.086 Y205.252 E0.01896
G1 X6.611 Y204.866 E0.01921
G1 X6.159 Y204.451 E0.01921
G1 X5.733 Y204.011 E0.01921
G1 X5.333 Y203.547 E0.01921
G1 X4.962 Y203.060 E0.01921
G1 X4.619 Y202.552 E0.01921
G1 X4.308 Y202.024 E0.01921
G1 X4.031 Y201.486 E0.01896
G1 X3.784 Y200.926 E0.01921
G1 X3.569 Y200.352 E0.01921
G1 X3.390 Y199.766 E0.01921
G1 X3.244 Y199.171 E0.01921
G1 X3.135 Y198.568 E0.01921
G1 X3.061 Y197.960 E0.01921
G1 X3.023 Y197.348 E0.01921
G1 X3.029 Y64.350 E4.17005
G1 X3.101 Y63.534 E0.02570
G1 X3.236 Y62.726 E0.02570
G1 X3.435 Y61.931 E0.02570
G1 X3.699 Y61.146 E0.02594
G1 X4.021 Y60.393 E0.02570
G1 X4.405 Y59.660 E0.02594
G1 X4.842 Y58.967 E0.02570
G1 X5.337 Y58.304 E0.02594
G1 X5.868 Y57.700 E0.02520
G1 X6.443 Y57.139 E0.02520
G1 X15.038 Y49.556 E0.35939
G1 F5760
G1 X15.800 Y48.961 E-0.33489
G1 F5760
G1 X16.562 Y48.469 E-0.31413
G1 F5760
G1 X16.846 Y48.320 E-0.11097
G1 E-0.04000 F2100.00000
G1 X12.717 Y55.982 F7200.000
G1 E0.80000 F2100.00000
G1 F2100
G1 X12.938 Y55.761 E0.00979
G1 X12.938 Y53.758 E0.06283
G1 X18.128 Y48.567 E0.23017
G1 X240.469 Y48.567 E6.97135
G1 X245.660 Y53.758 E0.23017
G1 X245.660 Y62.349 E0.26936
G1 X241.813 Y66.195 E0.17057
G1 X241.756 Y66.334 E0.00470
G1 X241.756 Y71.522 E0.16267
G1 X241.813 Y71.661 E0.00470
G1 X245.660 Y75.508 E0.17057
G1 X245.660 Y122.599 E1.47650
G1 X241.813 Y126.445 E0.17057
G1 X241.756 Y126.584 E0.00470
G1 X241.756 Y200.683 E2.32333
G1 X236.565 Y205.874 E0.23017
G1 X9.724 Y205.874 E7.11245
G1 X4.533 Y200.683 E0.23017
G1 X4.533 Y61.173 E4.37424
G1 X9.724 Y55.982 E0.23017
G1 X12.657 Y55.982 E0.09194
G1 X13.094 Y56.359 F7200.000
G1 F2100
G1 X13.315 Y56.138 E0.00979
G1 X13.315 Y53.914 E0.06975
G1 X18.285 Y48.944 E0.22038
G1 X240.313 Y48.944 E6.96155
G1 X245.283 Y53.914 E0.22038
G1 X245.283 Y62.192 E0.25957
G1 X241.436 Y66.039 E0.17057
G1 X241.379 Y66.178 E0.00470
G1 X241.379 Y71.678 E0.17247
G1 X241.436 Y71.817 E0.00470
G1 X245.283 Y75.664 E0.17057
G1 X245.283 Y122.442 E1.46671
G1 X241.436 Y126.289 E0.17057
G1 X241.379 Y126.428 E0.00470
G1 X241.379 Y200.527 E2.32333
G1 X236.409 Y205.497 E0.22037
G1 X9.880 Y205.497 E7.10265
G1 X4.910 Y200.527 E0.22037
G1 X4.910 Y61.329 E4.36445
G1 X9.880 Y56.359 E0.22038
G1 X13.034 Y56.359 E0.09887
G1 X13.471 Y56.736 F7200.000
G1 F2100
G1 X13.692 Y56.516 E0.00979
G1 X13.692 Y54.070 E0.07668
G1 X18.441 Y49.321 E0.21058
G1 X240.157 Y49.321 E6.95176
G1 X244.906 Y54.070 E0.21058
G1 X244.906 Y62.036 E0.24978
G1 X241.059 Y65.883 E0.17057
G1 X241.002 Y66.022 E0.00470
G1 X241.002 Y71.835 E0.18226
G1 X241.059 Y71.973 E0.00470
G1 X244.906 Y75.820 E0.17057
G1 X244.906 Y122.286 E1.45692
G1 X241.059 Y126.133 E0.17057
G1 X241.002 Y126.272 E0.00470
G1 X241.002 Y200.371 E2.32333
G1 X236.253 Y205.120 E0.21058
G1 X10.036 Y205.120 E7.09286
G1 X5.287 Y200.371 E0.21058
G1 X5.287 Y61.485 E4.35466
G1 X10.037 Y56.736 E0.21058
G1 X13.411 Y56.736 E0.10580
G1 X13.848 Y57.113 F7200.000
G1 F2100
G1 X14.069 Y56.893 E0.00979
G1 X14.069 Y54.226 E0.08360
G1 X18.597 Y49.698 E0.20079
G1 X240.001 Y49.698 E6.94196
G1 X244.529 Y54.226 E0.20079
G1 X244.529 Y61.880 E0.23998
G1 X240.682 Y65.727 E0.17057
G1 X240.625 Y65.865 E0.00470
G1 X240.625 Y71.991 E0.19206
G1 X240.682 Y72.129 E0.00470
G1 X244.529 Y75.976 E0.17057
G1 X244.529 Y122.130 E1.44712
G1 X240.682 Y125.977 E0.17057
G1 X240.625 Y126.115 E0.00470
G1 X240.625 Y200.215 E2.32333
G1 X236.097 Y204.743 E0.20079
G1 X10.193 Y204.743 E7.08306
G1 X5.665 Y200.215 E0.20079
G1 X5.665 Y61.642 E4.34486
G1 X10.193 Y57.113 E0.20079
G1 X13.788 Y57.113 E0.11272
G1 X14.225 Y57.491 F7200.000
G1 F2100
G1 X14.446 Y57.270 E0.00979
G1 X14.446 Y54.382 E0.09053
G1 X18.753 Y50.075 E0.19099
G1 X239.845 Y50.075 E6.93217
G1 X244.152 Y54.382 E0.19099
G1 X244.152 Y61.724 E0.23019
G1 X240.305 Y65.571 E0.17057
G1 X240.248 Y65.709 E0.00470
G1 X240.248 Y72.147 E0.20185
G1 X240.305 Y72.286 E0.00470
G1 X244.152 Y76.132 E0.17057
G1 X244.152 Y121.974 E1.43733
G1 X240.305 Y125.821 E0.17057
G1 X240.248 Y125.959 E0.00470
G1 X240.248 Y200.059 E2.32333
G1 X235.941 Y204.366 E0.19099
G1 X10.349 Y204.366 E7.07327
G1 X6.042 Y200.059 E0.19099
G1 X6.042 Y61.798 E4.33507
G1 X10.349 Y57.491 E0.19099
G1 X14.165 Y57.491 E0.11965
G1 X14.602 Y57.868 F7200.000
G1 F2100
G1 X14.823 Y57.647 E0.00979
G1 X14.823 Y54.539 E0.09745
G1 X18.909 Y50.452 E0.18120
G1 X239.688 Y50.452 E6.92237
G1 X243.775 Y54.539 E0.18120
G1 X243.775 Y61.568 E0.22039
G1 X239.928 Y65.414 E0.17057
G1 X239.871 Y65.553 E0.00470
G1 X239.871 Y72.303 E0.21165
G1 X239.928 Y72.442 E0.00470
G1 X243.775 Y76.289 E0.17057
G1 X243.775 Y121.818 E1.42753
G1 X239.928 Y125.664 E0.17057
G1 X239.871 Y125.803 E0.00470
G1 X239.871 Y199.902 E2.32333
G1 X235.784 Y203.989 E0.18120
G1 X10.505 Y203.989 E7.06347
G1 X6.419 Y199.902 E0.18120
G1 X6.419 Y61.954 E4.32527
G1 X10.505 Y57.868 E0.18120
G1 X14.542 Y57.868 E0.12657
G1 X14.979 Y58.245 F7200.000
G1 F2100
G1 X15.200 Y58.024 E0.00979
G1 X15.200 Y54.695 E0.10438
G1 X19.066 Y50.829 E0.17140
G1 X239.532 Y50.829 E6.91258
G1 X243.398 Y54.695 E0.17140
G1 X243.398 Y61.411 E0.21060
G1 X239.551 Y65.258 E0.17057
G1 X239.494 Y65.397 E0.00470
G1 X239.494 Y72.459 E0.22144
G1 X239.551 Y72.598 E0.00470
G1 X243.398 Y76.445 E0.17057
G1 X243.398 Y121.661 E1.41774
G1 X239.551 Y125.508 E0.17057
G1 X239.494 Y125.647 E0.00470
G1 X239.494 Y199.746 E2.32333
G1 X235.628 Y203.612 E0.17140
G1 X10.661 Y203.612 E7.05368
G1 X6.796 Y199.746 E0.17140
G1 X6.796 Y62.110 E4.31548
G1 X10.661 Y58.245 E0.17140
G1 X14.919 Y58.245 E0.13350
G1 X15.356 Y58.622 F7200.000
G1 F2100
G1 X15.577 Y58.401 E0.00979
G1 X15.577 Y54.851 E0.11131
G1 X19.222 Y51.206 E0.16161
G1 X239.376 Y51.206 E6.90278
G1 X243.021 Y54.851 E0.16161
G1 X243.021 Y61.255 E0.20080
G1 X239.376 Y64.900 E0.16161
G1 X239.337 Y64.900 E0.00121
G1 X239.116 Y65.121 E0.00979
G1 X239.116 Y72.735 E0.23875
G1 X239.337 Y72.956 E0.00979
G1 X239.376 Y72.956 E0.00121
G1 X243.021 Y76.601 E0.16161
G1 X243.021 Y121.505 E1.40794
G1 X239.376 Y125.150 E0.16161
G1 X239.337 Y125.150 E0.00121
G1 X239.116 Y125.371 E0.00979
G1 X239.116 Y199.590 E2.32709
G1 X235.472 Y203.235 E0.16161
G1 X10.817 Y203.235 E7.04388
G1 X7.173 Y199.590 E0.16161
G1 X7.173 Y62.266 E4.30568
G1 X10.818 Y58.622 E0.16161
G1 X15.296 Y58.622 E0.14042
G1 X15.733 Y58.999 F7200.000
G1 F2100
G1 X15.954 Y58.778 E0.00979
G1 X15.954 Y55.007 E0.11823
G1 X19.378 Y51.583 E0.15182
G1 X239.220 Y51.583 E6.89299
G1 X242.644 Y55.007 E0.15182
G1 X242.644 Y61.099 E0.19101
G1 X239.220 Y64.523 E0.15182
G1 X238.960 Y64.523 E0.00814
G1 X238.739 Y64.744 E0.00979
G1 X238.739 Y73.112 E0.26240
G1 X238.960 Y73.333 E0.00979
G1 X239.220 Y73.333 E0.00814
G1 X242.644 Y76.757 E0.15182
G1 X242.644 Y121.349 E1.39815
G1 X239.220 Y124.773 E0.15182
G1 X238.960 Y124.773 E0.00814
G1 X238.739 Y124.994 E0.00979
G1 X238.739 Y199.434 E2.33402
G1 X235.316 Y202.858 E0.15181
G1 X10.974 Y202.858 E7.03409
G1 X7.550 Y199.434 E0.15181
G1 X7.550 Y62.423 E4.29589
G1 X10.974 Y58.999 E0.15182
G1 X15.673 Y58.999 E0.14735
G1 X16.110 Y59.376 F7200.000
G1 F2100
G1 X16.331 Y59.155 E0.00979
G1 X16.331 Y55.163 E0.12516
G1 X19.534 Y51.960 E0.14202
G1 X239.064 Y51.960 E6.88319
G1 X242.267 Y55.163 E0.14202
G1 X242.267 Y60.943 E0.18121
G1 X239.064 Y64.146 E0.14202
G1 X238.583 Y64.146 E0.01506
G1 X238.362 Y64.367 E0.00979
G1 X238.362 Y73.490 E0.28604
G1 X238.583 Y73.710 E0.00979
G1 X239.064 Y73.710 E0.01506
G1 X242.267 Y76.913 E0.14202
G1 X242.267 Y121.193 E1.38835
G1 X239.064 Y124.396 E0.14202
G1 X238.583 Y124.396 E0.01506
G1 X238.362 Y124.617 E0.00979
G1 X238.362 Y199.278 E2.34094
G1 X235.160 Y202.480 E0.14202
G1 X11.130 Y202.480 E7.02429
G1 X7.927 Y199.278 E0.14202
G1 X7.927 Y62.579 E4.28609
G1 X11.130 Y59.376 E0.14202
G1 X16.050 Y59.376 E0.15428
G1 X16.487 Y59.753 F7200.000
G1 F2100
G1 X16.708 Y59.532 E0.00979
G1 X16.708 Y55.320 E0.13208
G1 X19.690 Y52.338 E0.13223
G1 X238.907 Y52.338 E6.87340
G1 X241.889 Y55.320 E0.13223
G1 X241.889 Y60.787 E0.17142
G1 X238.907 Y63.769 E0.13223
G1 X238.206 Y63.769 E0.02199
G1 X237.985 Y63.990 E0.00979
G1 X237.985 Y73.867 E0.30969
G1 X238.206 Y74.088 E0.00979
G1 X238.907 Y74.088 E0.02199
G1 X241.889 Y77.070 E0.13223
G1 X241.889 Y121.037 E1.37856
G1 X238.907 Y124.019 E0.13223
G1 X238.206 Y124.019 E0.02199
G1 X237.985 Y124.240 E0.00979
G1 X237.985 Y199.121 E2.34787
G1 X235.003 Y202.103 E0.13222
G1 X11.286 Y202.103 E7.01450
G1 X8.304 Y199.121 E0.13222
G1 X8.304 Y62.735 E4.27630
G1 X11.286 Y59.753 E0.13223
G1 X16.427 Y59.753 E0.16120
G1 X16.865 Y60.130 F7200.000
G1 F2100
G1 X17.085 Y59.909 E0.00979
G1 X17.085 Y55.476 E0.13901
G1 X19.846 Y52.715 E0.12243
G1 X238.751 Y52.715 E6.86361
G1 X241.512 Y55.476 E0.12243
G1 X241.512 Y60.630 E0.16162
G1 X238.751 Y63.392 E0.12243
G1 X237.829 Y63.392 E0.02892
G1 X237.608 Y63.612 E0.00979
G1 X237.608 Y74.244 E0.33334
G1 X237.829 Y74.465 E0.00979
G1 X238.751 Y74.465 E0.02892
G1 X241.512 Y77.226 E0.12243
G1 X241.512 Y120.880 E1.36876
G1 X238.751 Y123.642 E0.12243
G1 X237.829 Y123.642 E0.02892
G1 X237.608 Y123.862 E0.00979
G1 X237.608 Y198.965 E2.35479
G1 X234.847 Y201.726 E0.12243
G1 X11.442 Y201.726 E7.00470
G1 X8.681 Y198.965 E0.12243
G1 X8.681 Y62.891 E4.26651
G1 X11.442 Y60.130 E0.12243
G1 X16.805 Y60.130 E0.16813
G1 X17.242 Y60.507 F7200.000
G1 F2100
G1 X17.462 Y60.286 E0.00979
G1 X17.462 Y55.632 E0.14594
G1 X20.003 Y53.092 E0.11264
G1 X238.595 Y53.092 E6.85381
G1 X241.135 Y55.632 E0.11264
G1 X241.135 Y60.474 E0.15183
G1 X238.595 Y63.015 E0.11264
G1 X237.452 Y63.015 E0.03584
G1 X237.231 Y63.235 E0.00979
G1 X237.231 Y74.621 E0.35698
G1 X237.452 Y74.842 E0.00979
G1 X238.595 Y74.842 E0.03584
G1 X241.135 Y77.382 E0.11264
G1 X241.135 Y120.724 E1.35897
G1 X238.595 Y123.265 E0.11264
G1 X237.452 Y123.265 E0.03584
G1 X237.231 Y123.485 E0.00979
G1 X237.231 Y198.809 E2.36172
G1 X234.691 Y201.349 E0.11264
G1 X11.598 Y201.349 E6.99491
G1 X9.058 Y198.809 E0.11264
G1 X9.058 Y63.047 E4.25671
G1 X11.598 Y60.507 E0.11264
G1 X17.182 Y60.507 E0.17505
G1 F5760
G1 X17.462 Y60.286 E-0.12376
G1 F5760
G1 X17.462 Y58.449 E-0.63624
G1 E-0.04000 F2100.00000
G1 X25.095 Y123.265 F7200.000
G1 E0.80000 F2100.00000
G1 F2100
G1 X27.635 Y120.724 E0.11264
G1 X27.635 Y77.382 E1.35897
G1 X25.095 Y74.842 E0.11264
G1 X19.952 Y74.842 E0.16126
G1 X19.731 Y74.621 E0.00979
G1 X19.731 Y63.235 E0.35698
G1 X19.952 Y63.015 E0.00979
G1 X226.337 Y63.015 E6.47107
G1 X226.558 Y63.235 E0.00979
G1 X226.558 Y190.589 E3.99307
G1 X226.337 Y190.809 E0.00979
G1 X19.952 Y190.809 E6.47107
G1 X19.731 Y190.589 E0.00979
G1 X19.731 Y123.485 E2.10397
G1 X19.952 Y123.265 E0.00979
G1 X25.035 Y123.265 E0.15938
G1 X25.251 Y123.642 F7200.000
G1 F2100
G1 X28.012 Y120.880 E0.12243
G1 X28.012 Y77.226 E1.36876
G1 X25.251 Y74.465 E0.12243
G1 X20.329 Y74.465 E0.15433
G1 X20.108 Y74.244 E0.00979
G1 X20.108 Y63.612 E0.33334
G1 X20.329 Y63.392 E0.00979
G1 X225.960 Y63.392 E6.44742
G1 X226.181 Y63.612 E0.00979
G1 X226.181 Y190.211 E3.96942
G1 X225.960 Y190.432 E0.00979
G1 X20.329 Y190.432 E6.44742
G1 X20.108 Y190.211 E0.00979
G1 X20.108 Y123.862 E2.08033
G1 X20.329 Y123.642 E0.00979
G1 X25.191 Y123.642 E0.15245
G1 X25.407 Y124.019 F7200.000
G1 F2100
G1 X28.389 Y121.037 E0.13223
G1 X28.389 Y77.070 E1.37856
G1 X25.407 Y74.088 E0.13223
G1 X20.706 Y74.088 E0.14741
G1 X20.485 Y73.867 E0.00979
G1 X20.485 Y63.990 E0.30969
G1 X20.706 Y63.769 E0.00979
G1 X225.583 Y63.769 E6.42378
G1 X225.804 Y63.990 E0.00979
G1 X225.804 Y189.834 E3.94578
G1 X225.583 Y190.055 E0.00979
G1 X20.706 Y190.055 E6.42378
G1 X20.485 Y189.834 E0.00979
G1 X20.485 Y124.240 E2.05668
G1 X20.706 Y124.019 E0.00979
G1 X25.347 Y124.019 E0.14553
G1 X25.564 Y124.396 F7200.000
G1 F2100
G1 X28.767 Y121.193 E0.14202
G1 X28.767 Y76.913 E1.38835
G1 X25.564 Y73.710 E0.14202
G1 X21.083 Y73.710 E0.14048
G1 X20.862 Y73.490 E0.00979
G1 X20.862 Y64.367 E0.28604
G1 X21.083 Y64.146 E0.00979
G1 X225.206 Y64.146 E6.40013
G1 X225.427 Y64.367 E0.00979
G1 X225.427 Y189.457 E3.92213
G1 X225.206 Y189.678 E0.00979
G1 X21.083 Y189.678 E6.40013
G1 X20.862 Y189.457 E0.00979
G1 X20.862 Y124.617 E2.03303
G1 X21.083 Y124.396 E0.00979
G1 X25.504 Y124.396 E0.13860
G1 X25.720 Y124.773 F7200.000
G1 F2100
G1 X29.144 Y121.349 E0.15182
G1 X29.144 Y76.757 E1.39815
G1 X25.720 Y73.333 E0.15182
G1 X21.460 Y73.333 E0.13355
G1 X21.239 Y73.112 E0.00979
G1 X21.239 Y64.744 E0.26240
G1 X21.460 Y64.523 E0.00979
G1 X224.829 Y64.523 E6.37649
G1 X225.050 Y64.744 E0.00979
G1 X225.050 Y189.080 E3.89848
G1 X224.829 Y189.301 E0.00979
G1 X21.460 Y189.301 E6.37649
G1 X21.239 Y189.080 E0.00979
G1 X21.239 Y124.994 E2.00939
G1 X21.460 Y124.773 E0.00979
G1 X25.660 Y124.773 E0.13167
G1 X25.876 Y125.150 F7200.000
G1 F2100
G1 X29.521 Y121.505 E0.16161
G1 X29.521 Y76.601 E1.40794
G1 X25.876 Y72.956 E0.16161
G1 X21.837 Y72.956 E0.12663
G1 X21.616 Y72.735 E0.00979
G1 X21.616 Y65.121 E0.23875
G1 X21.837 Y64.900 E0.00979
G1 X224.452 Y64.900 E6.35284
G1 X224.673 Y65.121 E0.00979
G1 X224.673 Y188.703 E3.87484
G1 X224.452 Y188.924 E0.00979
G1 X21.837 Y188.924 E6.35284
G1 X21.616 Y188.703 E0.00979
G1 X21.616 Y125.371 E1.98574
G1 X21.837 Y125.150 E0.00979
G1 X25.816 Y125.150 E0.12475
G1 X26.032 Y125.527 F7200.000
G1 F2100
G1 X29.898 Y121.661 E0.17140
G1 X29.898 Y76.445 E1.41774
G1 X26.032 Y72.579 E0.17140
G1 X22.214 Y72.579 E0.11970
