; generated by Slic3r 1.33.8 on 2018-06-20 at 12:24:24

; external perimeters extrusion width = 0.60mm
; perimeters extrusion width = 0.43mm
; infill extrusion width = 0.70mm
; solid infill extrusion width = 0.70mm
; top infill extrusion width = 0.43mm

M107
M115 U3.0.12 ; tell printer latest fw version
M83  ; extruder relative mode
M104 S215 ; set extruder temp
M140 S55 ; set bed temp
M190 S55 ; wait for bed temp
M109 S215 ; wait for extruder temp
G28 W ; home all without mesh bed level
G80 ; mesh bed leveling
G1 Y-3.0 F1000.0 ; go outside pritn area
G1 X60.0 E9.0  F1000.0 ; intro line
G1 X100.0 E12.5  F1000.0 ; intro line
G21 ; set units to millimeters
G90 ; use absolute coordinates
M83 ; use relative distances for extrusion
G1 E-0.80000 F2100.00000
G1 Z0.200 F7200.000
G1 X55.487 Y44.041 F7200.000
G1 E0.80000 F2100.00000
M204 S1000
G1 F2100
G1 X183.693 Y44.033 E4.01983
G1 X184.072 Y44.064 E0.01193
G1 X184.442 Y44.156 E0.01193
G1 X184.791 Y44.306 E0.01193
G1 X185.113 Y44.509 E0.01193
G1 X185.322 Y44.686 E0.00859
G1 X185.510 Y44.886 E0.00859
G1 X185.673 Y45.106 E0.00859
G1 X185.810 Y45.343 E0.00859
G1 X185.917 Y45.592 E0.00847
G1 X185.997 Y45.854 E0.00859
G1 X186.045 Y46.124 E0.00859
G1 X186.063 Y46.397 E0.00859
G1 X186.063 Y140.421 E2.94805
G1 X186.031 Y140.796 E0.01181
G1 X185.939 Y141.166 E0.01193
G1 X185.790 Y141.516 E0.01193
G1 X185.586 Y141.837 E0.01193
G1 X185.409 Y142.047 E0.00859
G1 X185.209 Y142.234 E0.00859
G1 X184.989 Y142.397 E0.00859
G1 X184.752 Y142.534 E0.00859
G1 X184.500 Y142.643 E0.00859
G1 X184.238 Y142.722 E0.00859
G1 X183.968 Y142.770 E0.00859
G1 X183.694 Y142.787 E0.00859
G1 X55.678 Y142.787 E4.01386
G1 X55.299 Y142.755 E0.01193
G1 X54.929 Y142.663 E0.01193
G1 X54.580 Y142.514 E0.01193
G1 X54.258 Y142.310 E0.01193
G1 X54.051 Y142.136 E0.00847
G1 X53.864 Y141.936 E0.00859
G1 X53.702 Y141.720 E0.00847
G1 X53.564 Y141.483 E0.00859
G1 X53.456 Y141.235 E0.00847
G1 X53.376 Y140.973 E0.00859
G1 X53.327 Y140.707 E0.00847
G1 X53.309 Y140.434 E0.00859
G1 X53.309 Y46.379 E2.94901
G1 X53.353 Y45.952 E0.01348
G1 X53.474 Y45.539 E0.01348
G1 X53.667 Y45.155 E0.01348
G1 X53.925 Y44.812 E0.01348
G1 X54.242 Y44.521 E0.01348
G1 X54.606 Y44.292 E0.01348
G1 X55.005 Y44.132 E0.01348
G1 X55.427 Y44.047 E0.01351
G1 F5760
G1 X57.621 Y44.046 E-0.76000
G1 E-0.04000 F2100.00000
G1 X176.856 Y92.870 F7200.000
G1 E0.80000 F2100.00000
G1 F840
G1 X177.006 Y92.352 E0.01690
G1 X177.161 Y92.022 E0.01145
G1 X177.357 Y91.714 E0.01144
G1 X177.713 Y91.309 E0.01691
G1 X178.142 Y90.977 E0.01699
G1 X178.625 Y90.731 E0.01701
G1 X179.150 Y90.579 E0.01713
G1 X179.681 Y90.529 E0.01673
G1 X180.221 Y90.579 E0.01700
G1 X180.746 Y90.731 E0.01714
G1 X181.229 Y90.977 E0.01701
G1 X181.658 Y91.309 E0.01699
G1 X182.014 Y91.714 E0.01691
G1 X182.210 Y92.022 E0.01144
G1 X182.365 Y92.352 E0.01145
G1 X182.515 Y92.870 E0.01690
G1 X182.566 Y93.410 E0.01701
G1 X182.515 Y93.950 E0.01701
G1 X182.365 Y94.467 E0.01690
G1 X182.210 Y94.798 E0.01145
G1 X182.014 Y95.106 E0.01144
G1 X181.658 Y95.510 E0.01691
G1 X181.229 Y95.842 E0.01699
G1 X180.746 Y96.089 E0.01701
G1 X180.221 Y96.241 E0.01713
G1 X179.690 Y96.291 E0.01673
G1 X179.150 Y96.241 E0.01700
G1 X178.625 Y96.089 E0.01714
G1 X178.142 Y95.842 E0.01701
G1 X177.713 Y95.510 E0.01699
G1 X177.357 Y95.106 E0.01691
G1 X177.161 Y94.798 E0.01144
G1 X177.006 Y94.467 E0.01145
G1 X176.856 Y93.950 E0.01690
G1 X176.805 Y93.410 E0.01701
G1 X176.850 Y92.929 E0.01513
G1 X176.553 Y92.608 F7200.000
G1 F5760
G1 X177.006 Y92.352 E-0.20716
G1 F5760
G1 X177.161 Y92.022 E-0.12648
G1 F5760
G1 X177.357 Y91.714 E-0.12634
G1 F5760
G1 X177.713 Y91.309 E-0.18676
G1 F5760
G1 X177.972 Y91.109 E-0.11327
G1 E-0.04000 F2100.00000
G1 X182.904 Y92.856 F7200.000
G1 E0.80000 F2100.00000
G1 F1680
G1 X182.719 Y92.218 E0.02081
G1 X182.541 Y91.839 E0.01313
G1 X182.316 Y91.487 E0.01311
G1 X181.917 Y91.033 E0.01896
G1 X181.432 Y90.658 E0.01922
G1 X180.885 Y90.379 E0.01924
G1 X180.291 Y90.207 E0.01939
G1 X179.681 Y90.150 E0.01922
G1 X179.079 Y90.207 E0.01895
G1 X178.486 Y90.379 E0.01938
G1 X177.939 Y90.658 E0.01924
G1 X177.454 Y91.033 E0.01922
G1 X177.055 Y91.487 E0.01896
G1 X176.830 Y91.839 E0.01311
G1 X176.652 Y92.218 E0.01313
G1 X176.484 Y92.799 E0.01895
G1 X176.426 Y93.410 E0.01924
G1 X176.484 Y94.021 E0.01924
G1 X176.652 Y94.601 E0.01895
G1 X176.830 Y94.980 E0.01313
G1 X177.055 Y95.333 E0.01311
G1 X177.454 Y95.786 E0.01896
G1 X177.939 Y96.162 E0.01922
G1 X178.486 Y96.441 E0.01924
G1 X179.080 Y96.613 E0.01939
G1 X179.690 Y96.669 E0.01922
G1 X180.292 Y96.613 E0.01895
G1 X180.885 Y96.441 E0.01938
G1 X181.432 Y96.162 E0.01924
G1 X181.917 Y95.786 E0.01922
G1 X182.316 Y95.333 E0.01896
G1 X182.541 Y94.980 E0.01311
G1 X182.719 Y94.601 E0.01313
G1 X182.904 Y93.964 E0.02081
G1 X183.098 Y93.991 E0.00616
G1 X183.098 Y139.823 E1.43701
G1 X56.273 Y139.823 E3.97654
G1 X56.273 Y93.991 E1.43701
G1 X56.467 Y93.964 E0.00616
G1 X56.652 Y94.601 E0.02081
G1 X56.830 Y94.980 E0.01313
G1 X57.055 Y95.333 E0.01311
G1 X57.454 Y95.786 E0.01896
G1 X57.939 Y96.162 E0.01922
G1 X58.486 Y96.441 E0.01924
G1 X59.080 Y96.613 E0.01939
G1 X59.690 Y96.669 E0.01922
G1 X60.292 Y96.613 E0.01895
G1 X60.885 Y96.441 E0.01938
G1 X61.432 Y96.162 E0.01924
G1 X61.917 Y95.786 E0.01922
G1 X62.316 Y95.333 E0.01896
G1 X62.541 Y94.980 E0.01311
G1 X62.719 Y94.601 E0.01313
G1 X62.887 Y94.021 E0.01895
G1 X62.945 Y93.410 E0.01924
G1 X62.887 Y92.799 E0.01924
G1 X62.719 Y92.218 E0.01895
G1 X62.541 Y91.839 E0.01313
G1 X62.316 Y91.487 E0.01311
G1 X61.917 Y91.033 E0.01896
G1 X61.432 Y90.658 E0.01922
G1 X60.885 Y90.379 E0.01924
G1 X60.291 Y90.207 E0.01939
G1 X59.681 Y90.150 E0.01922
G1 X59.079 Y90.207 E0.01895
G1 X58.486 Y90.379 E0.01938
G1 X57.939 Y90.658 E0.01924
G1 X57.454 Y91.033 E0.01922
G1 X57.055 Y91.487 E0.01896
G1 X56.830 Y91.839 E0.01311
G1 X56.652 Y92.218 E0.01313
G1 X56.467 Y92.856 E0.02081
G1 X56.273 Y92.828 E0.00616
G1 X56.273 Y46.997 E1.43701
G1 X183.098 Y46.997 E3.97654
G1 X183.098 Y92.828 E1.43701
G1 X182.963 Y92.847 E0.00427
G1 F5760
G1 X182.719 Y92.218 E-0.23375
G1 F5760
G1 X182.541 Y91.839 E-0.14502
G1 F5760
G1 X182.316 Y91.487 E-0.14480
G1 F5760
G1 X181.917 Y91.033 E-0.20940
G1 F5760
G1 X181.855 Y90.985 E-0.02702
G1 E-0.04000 F2100.00000
G1 X62.566 Y93.410 F7200.000
G1 E0.80000 F2100.00000
G1 F840
G1 X62.515 Y93.950 E0.01701
G1 X62.365 Y94.467 E0.01690
G1 X62.210 Y94.798 E0.01145
G1 X62.014 Y95.106 E0.01144
G1 X61.658 Y95.510 E0.01691
G1 X61.229 Y95.842 E0.01699
G1 X60.746 Y96.089 E0.01701
G1 X60.221 Y96.241 E0.01713
G1 X59.690 Y96.291 E0.01673
G1 X59.150 Y96.241 E0.01700
G1 X58.625 Y96.089 E0.01714
G1 X58.142 Y95.842 E0.01701
G1 X57.713 Y95.510 E0.01699
G1 X57.357 Y95.106 E0.01691
G1 X57.161 Y94.798 E0.01144
G1 X57.006 Y94.467 E0.01145
G1 X56.856 Y93.950 E0.01690
G1 X56.805 Y93.410 E0.01701
G1 X56.856 Y92.870 E0.01701
G1 X57.006 Y92.352 E0.01690
G1 X57.161 Y92.022 E0.01145
G1 X57.357 Y91.714 E0.01144
G1 X57.713 Y91.309 E0.01691
G1 X58.142 Y90.977 E0.01699
G1 X58.625 Y90.731 E0.01701
G1 X59.150 Y90.579 E0.01713
G1 X59.681 Y90.529 E0.01673
G1 X60.221 Y90.579 E0.01700
G1 X60.746 Y90.731 E0.01714
G1 X61.229 Y90.977 E0.01701
G1 X61.658 Y91.309 E0.01699
G1 X62.014 Y91.714 E0.01691
G1 X62.210 Y92.022 E0.01144
G1 X62.365 Y92.352 E0.01145
G1 X62.515 Y92.870 E0.01690
G1 X62.561 Y93.350 E0.01513
G1 X62.913 Y93.610 F7200.000
G1 F5760
G1 X62.515 Y93.950 E-0.20832
G1 F5760
G1 X62.365 Y94.467 E-0.18671
G1 F5760
G1 X62.210 Y94.798 E-0.12648
G1 F5760
G1 X62.014 Y95.106 E-0.12634
G1 F5760
G1 X61.800 Y95.349 E-0.11216
G1 E-0.04000 F2100.00000
G1 X55.895 Y46.620 F7200.000
G1 E0.80000 F2100.00000
G1 F1260
G1 X183.475 Y46.620 E4.00018
G1 X183.475 Y140.200 E2.93414
G1 X55.895 Y140.200 E4.00018
G1 X55.895 Y46.680 E2.93225
G1 X56.287 Y46.703 F7200.000
G1 F5760
G1 X58.090 Y46.679 E-0.76000
G1 E-0.04000 F2100.00000
G1 X61.205 Y90.415 F7200.000
G1 E0.80000 F2100.00000
G1 F2520
G1 X56.555 Y85.765 E0.20626
G1 X56.555 Y86.299 E0.01674
G1 X60.168 Y89.911 E0.16026
G1 X59.681 Y89.866 E0.01535
G1 X59.597 Y89.874 E0.00263
G1 X56.555 Y86.832 E0.13494
G1 X56.555 Y87.366 E0.01674
G1 X59.110 Y89.920 E0.11331
G1 X59.026 Y89.928 E0.00263
G1 X58.683 Y90.027 E0.01120
G1 X56.555 Y87.899 E0.09439
G1 X56.555 Y88.433 E0.01674
G1 X58.286 Y90.163 E0.07676
G1 X57.932 Y90.343 E0.01244
G1 X56.555 Y88.966 E0.06109
G1 X56.555 Y89.500 E0.01674
G1 X57.610 Y90.554 E0.04679
G1 X57.309 Y90.787 E0.01193
G1 X56.555 Y90.033 E0.03345
G1 X56.555 Y90.567 E0.01674
G1 X57.051 Y91.063 E0.02200
G1 X56.819 Y91.329 E0.01109
G1 X56.679 Y91.224 E0.00550
G1 X56.386 Y90.931 E0.01302
G1 F5760
G1 X56.679 Y91.224 E-0.14376
G1 F5760
G1 X56.819 Y91.329 E-0.06074
G1 F5760
G1 X57.051 Y91.063 E-0.12241
G1 F5760
G1 X56.555 Y90.567 E-0.24286
G1 F5760
G1 X56.555 Y90.033 E-0.18479
G1 F5760
G1 X56.566 Y90.044 E-0.00545
G1 E-0.04000 F2100.00000
G1 X56.386 Y138.947 F7200.000
G1 E0.80000 F2100.00000
G1 F2520
G1 X56.979 Y139.540 E0.02630
G1 X57.512 Y139.540 E0.01674
G1 X56.555 Y138.583 E0.04244
G1 X56.555 Y138.050 E0.01674
G1 X58.046 Y139.540 E0.06611
G1 X58.579 Y139.540 E0.01674
G1 X56.555 Y137.516 E0.08978
G1 X56.555 Y136.983 E0.01674
G1 X59.113 Y139.540 E0.11344
G1 X59.646 Y139.540 E0.01674
G1 X56.555 Y136.449 E0.13711
G1 X56.555 Y135.916 E0.01674
G1 X60.180 Y139.540 E0.16078
G1 X60.713 Y139.540 E0.01674
G1 X56.555 Y135.382 E0.18445
G1 X56.555 Y134.849 E0.01674
G1 X61.247 Y139.540 E0.20812
G1 X61.780 Y139.540 E0.01674
G1 X56.555 Y134.315 E0.23178
G1 X56.555 Y133.781 E0.01674
G1 X62.314 Y139.540 E0.25545
G1 X62.847 Y139.540 E0.01674
G1 X56.555 Y133.248 E0.27912
G1 X56.555 Y132.714 E0.01674
G1 X63.381 Y139.540 E0.30279
G1 X63.914 Y139.540 E0.01674
G1 X56.555 Y132.181 E0.32645
G1 X56.555 Y131.647 E0.01674
G1 X64.448 Y139.540 E0.35012
G1 X64.981 Y139.540 E0.01674
G1 X56.555 Y131.114 E0.37379
G1 X56.555 Y130.580 E0.01674
G1 X65.515 Y139.540 E0.39746
G1 X66.048 Y139.540 E0.01674
G1 X56.555 Y130.047 E0.42113
G1 X56.555 Y129.513 E0.01674
G1 X66.582 Y139.540 E0.44479
G1 X67.115 Y139.540 E0.01674
G1 X56.555 Y128.980 E0.46846
G1 X56.555 Y128.446 E0.01674
G1 X67.649 Y139.540 E0.49213
G1 X68.182 Y139.540 E0.01674
G1 X56.555 Y127.913 E0.51580
G1 X56.555 Y127.379 E0.01674
G1 X68.716 Y139.540 E0.53946
G1 X69.249 Y139.540 E0.01674
G1 X56.555 Y126.846 E0.56313
G1 X56.555 Y126.312 E0.01674
G1 X69.783 Y139.540 E0.58680
G1 X70.316 Y139.540 E0.01674
G1 X56.555 Y125.779 E0.61047
G1 X56.555 Y125.245 E0.01674
G1 X70.850 Y139.540 E0.63414
G1 X71.383 Y139.540 E0.01674
G1 X56.555 Y124.712 E0.65780
G1 X56.555 Y124.178 E0.01674
G1 X71.917 Y139.540 E0.68147
G1 X72.450 Y139.540 E0.01674
G1 X56.555 Y123.645 E0.70514
G1 X56.555 Y123.111 E0.01674
G1 X72.984 Y139.540 E0.72881
G1 X73.518 Y139.540 E0.01674
G1 X56.555 Y122.578 E0.75247
G1 X56.555 Y122.044 E0.01674
G1 X74.051 Y139.540 E0.77614
G1 X74.585 Y139.540 E0.01674
G1 X56.555 Y121.511 E0.79981
G1 X56.555 Y120.977 E0.01674
G1 X75.118 Y139.540 E0.82348
G1 X75.652 Y139.540 E0.01674
G1 X56.555 Y120.444 E0.84715
G1 X56.555 Y119.910 E0.01674
G1 X76.185 Y139.540 E0.87081
G1 X76.719 Y139.540 E0.01674
G1 X56.555 Y119.377 E0.89448
G1 X56.555 Y118.843 E0.01674
G1 X77.252 Y139.540 E0.91815
G1 X77.786 Y139.540 E0.01674
G1 X56.555 Y118.310 E0.94182
G1 X56.555 Y117.776 E0.01674
G1 X78.319 Y139.540 E0.96548
G1 X78.853 Y139.540 E0.01674
G1 X56.555 Y117.243 E0.98915
G1 X56.555 Y116.709 E0.01674
G1 X79.386 Y139.540 E1.01282
G1 X79.920 Y139.540 E0.01674
G1 X56.555 Y116.175 E1.03649
G1 X56.555 Y115.642 E0.01674
G1 X80.453 Y139.540 E1.06016
G1 X80.987 Y139.540 E0.01674
G1 X56.555 Y115.108 E1.08382
G1 X56.555 Y114.575 E0.01674
G1 X81.520 Y139.540 E1.10749
G1 X82.054 Y139.540 E0.01674
G1 X56.555 Y114.041 E1.13116
G1 X56.555 Y113.508 E0.01674
G1 X82.587 Y139.540 E1.15483
G1 X83.121 Y139.540 E0.01674
G1 X56.555 Y112.974 E1.17849
G1 X56.555 Y112.441 E0.01674
G1 X83.654 Y139.540 E1.20216
G1 X84.188 Y139.540 E0.01674
G1 X56.555 Y111.907 E1.22583
G1 X56.555 Y111.374 E0.01674
G1 X84.721 Y139.540 E1.24950
G1 X85.255 Y139.540 E0.01674
G1 X56.555 Y110.840 E1.27316
G1 X56.555 Y110.307 E0.01674
G1 X85.788 Y139.540 E1.29683
G1 X86.322 Y139.540 E0.01674
G1 X56.555 Y109.773 E1.32050
G1 X56.555 Y109.240 E0.01674
G1 X86.855 Y139.540 E1.34417
G1 X87.389 Y139.540 E0.01674
G1 X56.555 Y108.706 E1.36784
G1 X56.555 Y108.173 E0.01674
G1 X87.922 Y139.540 E1.39150
G1 X88.456 Y139.540 E0.01674
G1 X56.555 Y107.639 E1.41517
G1 X56.555 Y107.106 E0.01674
G1 X88.989 Y139.540 E1.43884
G1 X89.523 Y139.540 E0.01674
G1 X56.555 Y106.572 E1.46251
G1 X56.555 Y106.039 E0.01674
G1 X90.056 Y139.540 E1.48617
G1 X90.590 Y139.540 E0.01674
G1 X56.555 Y105.505 E1.50984
G1 X56.555 Y104.972 E0.01674
G1 X91.124 Y139.540 E1.53351
G1 X91.657 Y139.540 E0.01674
G1 X56.555 Y104.438 E1.55718
G1 X56.555 Y103.905 E0.01674
G1 X92.191 Y139.540 E1.58085
G1 X92.724 Y139.540 E0.01674
G1 X56.555 Y103.371 E1.60451
G1 X56.555 Y102.838 E0.01674
G1 X93.258 Y139.540 E1.62818
G1 X93.791 Y139.540 E0.01674
G1 X56.555 Y102.304 E1.65185
G1 X56.555 Y101.771 E0.01674
G1 X94.325 Y139.540 E1.67552
G1 X94.858 Y139.540 E0.01674
G1 X56.555 Y101.237 E1.69918
G1 X56.555 Y100.704 E0.01674
G1 X95.392 Y139.540 E1.72285
G1 X95.925 Y139.540 E0.01674
G1 X56.555 Y100.170 E1.74652
G1 X56.555 Y99.637 E0.01674
G1 X96.459 Y139.540 E1.77019
G1 X96.992 Y139.540 E0.01674
G1 X56.555 Y99.103 E1.79386
G1 X56.555 Y98.569 E0.01674
G1 X97.526 Y139.540 E1.81752
G1 X98.059 Y139.540 E0.01674
G1 X56.555 Y98.036 E1.84119
G1 X56.555 Y97.502 E0.01674
G1 X98.593 Y139.540 E1.86486
G1 X99.126 Y139.540 E0.01674
G1 X56.555 Y96.969 E1.88853
G1 X56.555 Y96.435 E0.01674
G1 X99.660 Y139.540 E1.91219
G1 X100.193 Y139.540 E0.01674
G1 X56.555 Y95.902 E1.93586
G1 X56.555 Y95.520 E0.01198
G1 X56.633 Y95.630 E0.00422
G1 X56.738 Y95.551 E0.00413
G1 X100.727 Y139.540 E1.95143
G1 X101.260 Y139.540 E0.01674
G1 X58.444 Y96.723 E1.89943
G1 X59.027 Y96.892 E0.01905
G1 X59.158 Y96.904 E0.00413
G1 X101.794 Y139.540 E1.89141
G1 X102.327 Y139.540 E0.01674
G1 X59.737 Y96.949 E1.88941
G1 X60.224 Y96.903 E0.01536
G1 X102.861 Y139.540 E1.89145
G1 X103.394 Y139.540 E0.01674
G1 X60.656 Y96.802 E1.89595
G1 X61.058 Y96.670 E0.01327
G1 X103.928 Y139.540 E1.90178
G1 X104.461 Y139.540 E0.01674
G1 X61.411 Y96.490 E1.90978
G1 X61.584 Y96.402 E0.00609
G1 X61.738 Y96.283 E0.00609
G1 X104.995 Y139.540 E1.91897
G1 X105.528 Y139.540 E0.01674
G1 X62.039 Y96.050 E1.92930
G1 X62.111 Y95.994 E0.00289
G1 X62.301 Y95.779 E0.00899
G1 X106.062 Y139.540 E1.94134
G1 X106.595 Y139.540 E0.01674
G1 X62.549 Y95.494 E1.95397
G1 X62.757 Y95.167 E0.01212
G1 X107.129 Y139.540 E1.96845
G1 X107.662 Y139.540 E0.01674
G1 X62.933 Y94.810 E1.98429
G1 X62.984 Y94.701 E0.00378
G1 X63.068 Y94.412 E0.00945
G1 X108.196 Y139.540 E2.00195
G1 X108.730 Y139.540 E0.01674
G1 X63.175 Y93.985 E2.02089
G1 X63.221 Y93.498 E0.01536
G1 X109.263 Y139.540 E2.04252
G1 X109.797 Y139.540 E0.01674
G1 X63.184 Y92.927 E2.06784
G1 X63.166 Y92.746 E0.00572
G1 X63.015 Y92.225 E0.01700
G1 X110.330 Y139.540 E2.09897
G1 X110.864 Y139.540 E0.01674
G1 X56.555 Y85.232 E2.40922
G1 X56.555 Y84.698 E0.01674
G1 X111.397 Y139.540 E2.43289
G1 X111.931 Y139.540 E0.01674
G1 X56.555 Y84.165 E2.45655
G1 X56.555 Y83.631 E0.01674
G1 X112.464 Y139.540 E2.48022
G1 X112.998 Y139.540 E0.01674
G1 X56.555 Y83.098 E2.50389
G1 X56.555 Y82.564 E0.01674
G1 X113.531 Y139.540 E2.52756
G1 X114.065 Y139.540 E0.01674
G1 X56.555 Y82.031 E2.55122
G1 X56.555 Y81.497 E0.01674
G1 X114.598 Y139.540 E2.57489
G1 X115.132 Y139.540 E0.01674
G1 X56.555 Y80.964 E2.59856
G1 X56.555 Y80.430 E0.01674
G1 X115.665 Y139.540 E2.62223
G1 X116.199 Y139.540 E0.01674
G1 X56.555 Y79.896 E2.64590
G1 X56.555 Y79.363 E0.01674
G1 X116.732 Y139.540 E2.66956
G1 X117.266 Y139.540 E0.01674
G1 X56.555 Y78.829 E2.69323
G1 X56.555 Y78.296 E0.01674
G1 X117.799 Y139.540 E2.71690
G1 X118.333 Y139.540 E0.01674
G1 X56.555 Y77.762 E2.74057
G1 X56.555 Y77.229 E0.01674
G1 X118.866 Y139.540 E2.76423
G1 X119.400 Y139.540 E0.01674
G1 X56.555 Y76.695 E2.78790
G1 X56.555 Y76.162 E0.01674
G1 X119.933 Y139.540 E2.81157
G1 X120.467 Y139.540 E0.01674
G1 X56.555 Y75.628 E2.83524
G1 X56.555 Y75.095 E0.01674
G1 X121.000 Y139.540 E2.85890
