; generated by Slic3r 1.33.8 on 2018-04-05 at 14:24:46

; external perimeters extrusion width = 0.60mm
; perimeters extrusion width = 0.43mm
; infill extrusion width = 0.70mm
; solid infill extrusion width = 0.70mm
; top infill extrusion width = 0.43mm

M107
M115 U3.0.12 ; tell printer latest fw version
M83  ; extruder relative mode
M104 S215 ; set extruder temp
M140 S55 ; set bed temp
M190 S55 ; wait for bed temp
M109 S215 ; wait for extruder temp
G28 W ; home all without mesh bed level
G80 ; mesh bed leveling
G1 Y-3.0 F1000.0 ; go outside pritn area
G1 X60.0 E9.0  F1000.0 ; intro line
G1 X100.0 E12.5  F1000.0 ; intro line
G21 ; set units to millimeters
G90 ; use absolute coordinates
M83 ; use relative distances for extrusion
G1 E-0.80000 F2100.00000
G1 Z0.200 F7200.000
G1 X85.774 Y91.241 F7200.000
G1 E0.80000 F2100.00000
M204 S1000
G1 F2100
G1 X86.078 Y90.970 E0.01276
G1 X86.424 Y90.755 E0.01276
G1 X86.801 Y90.603 E0.01276
G1 X87.203 Y90.517 E0.01288
G1 X107.480 Y88.498 E0.63892
G1 X142.588 Y88.500 E1.10077
G1 X162.740 Y90.510 E0.63501
G1 X163.206 Y90.605 E0.01490
G1 X163.525 Y90.730 E0.01074
G1 X163.823 Y90.900 E0.01074
G1 X164.095 Y91.113 E0.01086
G1 X164.332 Y91.361 E0.01074
G1 X177.359 Y107.643 E0.65380
G1 X177.505 Y107.847 E0.00788
G1 X177.628 Y108.066 E0.00788
G1 X177.733 Y108.311 E0.00836
G1 X177.810 Y108.566 E0.00836
G1 X177.858 Y108.828 E0.00836
G1 X177.877 Y109.094 E0.00836
G1 X177.877 Y119.148 E0.31522
G1 X177.848 Y119.493 E0.01086
G1 X177.770 Y119.830 E0.01086
G1 X177.632 Y120.177 E0.01169
G1 X177.443 Y120.494 E0.01157
G1 X177.205 Y120.781 E0.01169
G1 X176.925 Y121.027 E0.01169
G1 X176.610 Y121.227 E0.01169
G1 X176.268 Y121.375 E0.01169
G1 X175.907 Y121.467 E0.01169
G1 X175.535 Y121.502 E0.01169
G1 X74.496 Y121.502 E3.16801
G1 X74.046 Y121.458 E0.01419
G1 X73.612 Y121.330 E0.01419
G1 X73.321 Y121.189 E0.01014
G1 X73.051 Y121.010 E0.01014
G1 X72.809 Y120.795 E0.01014
G1 X72.598 Y120.550 E0.01014
G1 X72.422 Y120.279 E0.01014
G1 X72.286 Y119.989 E0.01002
G1 X72.189 Y119.681 E0.01014
G1 X72.135 Y119.362 E0.01014
G1 X72.123 Y109.091 E0.32204
G1 X72.170 Y108.656 E0.01371
G1 X72.295 Y108.237 E0.01371
G1 X72.444 Y107.932 E0.01062
G1 X72.636 Y107.649 E0.01074
G1 X85.733 Y91.285 E0.65718
G1 F5760
G1 X86.078 Y90.970 E-0.16168
G1 F5760
G1 X86.424 Y90.755 E-0.14099
G1 F5760
G1 X86.801 Y90.603 E-0.14099
G1 F5760
G1 X87.203 Y90.517 E-0.14230
G1 F5760
G1 X87.703 Y90.467 E-0.17404
G1 E-0.04000 F2100.00000
G1 X98.001 Y99.844 F7200.000
G1 E0.80000 F2100.00000
G1 F840
G1 X98.256 Y99.302 E0.01876
G1 X98.420 Y99.025 E0.01011
G1 X98.767 Y98.548 E0.01847
G1 X98.980 Y98.307 E0.01011
G1 X99.409 Y97.903 E0.01847
G1 X99.657 Y97.711 E0.00982
G1 X99.918 Y97.534 E0.00990
G1 X100.440 Y97.247 E0.01867
G1 X100.996 Y97.027 E0.01877
G1 X101.309 Y96.936 E0.01019
G1 X101.894 Y96.825 E0.01867
G1 X102.488 Y96.787 E0.01867
G1 X102.813 Y96.797 E0.01019
G1 X103.407 Y96.872 E0.01877
G1 X103.986 Y97.021 E0.01876
G1 X104.281 Y97.127 E0.00982
G1 X104.571 Y97.253 E0.00990
G1 X105.093 Y97.540 E0.01867
G1 X105.577 Y97.892 E0.01876
G1 X105.818 Y98.105 E0.01011
G1 X106.228 Y98.541 E0.01876
G1 X106.580 Y99.025 E0.01876
G1 X106.744 Y99.302 E0.01011
G1 X106.999 Y99.844 E0.01876
G1 X107.183 Y100.410 E0.01867
G1 X107.252 Y100.718 E0.00990
G1 X107.301 Y101.028 E0.00982
G1 X107.338 Y101.625 E0.01876
G1 X107.301 Y102.219 E0.01867
G1 X107.252 Y102.531 E0.00990
G1 X107.183 Y102.837 E0.00982
G1 X106.999 Y103.406 E0.01876
G1 X106.744 Y103.948 E0.01876
G1 X106.580 Y104.225 E0.01011
G1 X106.233 Y104.702 E0.01847
G1 X106.020 Y104.943 E0.01011
G1 X105.591 Y105.347 E0.01847
G1 X105.343 Y105.539 E0.00982
G1 X105.082 Y105.716 E0.00990
G1 X104.560 Y106.003 E0.01867
G1 X104.004 Y106.223 E0.01877
G1 X103.691 Y106.314 E0.01019
G1 X103.106 Y106.425 E0.01867
G1 X102.500 Y106.463 E0.01905
G1 X101.903 Y106.426 E0.01877
G1 X101.584 Y106.375 E0.01011
G1 X101.014 Y106.229 E0.01847
G1 X100.719 Y106.123 E0.00982
G1 X100.429 Y105.997 E0.00990
G1 X99.907 Y105.710 E0.01867
G1 X99.423 Y105.358 E0.01876
G1 X99.182 Y105.145 E0.01011
G1 X98.772 Y104.709 E0.01876
G1 X98.420 Y104.225 E0.01876
G1 X98.256 Y103.948 E0.01011
G1 X98.001 Y103.406 E0.01876
G1 X97.817 Y102.840 E0.01867
G1 X97.748 Y102.532 E0.00990
G1 X97.699 Y102.222 E0.00982
G1 X97.662 Y101.625 E0.01876
G1 X97.699 Y101.031 E0.01867
G1 X97.748 Y100.719 E0.00990
G1 X97.817 Y100.413 E0.00982
G1 X97.983 Y99.901 E0.01688
G1 X98.353 Y99.983 F7200.000
G1 F840
G1 X98.590 Y99.479 E0.01746
G1 X98.736 Y99.232 E0.00899
G1 X99.061 Y98.784 E0.01736
G1 X99.251 Y98.569 E0.00899
G1 X99.654 Y98.190 E0.01735
G1 X99.878 Y98.017 E0.00889
G1 X100.115 Y97.856 E0.00897
G1 X100.601 Y97.589 E0.01737
G1 X101.119 Y97.384 E0.01746
G1 X101.397 Y97.303 E0.00908
G1 X101.941 Y97.200 E0.01737
G1 X102.494 Y97.165 E0.01738
G1 X102.783 Y97.174 E0.00907
G1 X103.336 Y97.244 E0.01746
G1 X103.875 Y97.382 E0.01746
G1 X104.142 Y97.478 E0.00889
G1 X104.405 Y97.592 E0.00897
G1 X104.890 Y97.859 E0.01737
G1 X105.341 Y98.186 E0.01746
G1 X105.556 Y98.376 E0.00899
G1 X105.937 Y98.782 E0.01746
G1 X106.264 Y99.232 E0.01746
G1 X106.410 Y99.479 E0.00899
G1 X106.647 Y99.983 E0.01746
G1 X106.819 Y100.510 E0.01737
G1 X106.881 Y100.789 E0.00897
G1 X106.925 Y101.069 E0.00889
G1 X106.960 Y101.625 E0.01746
G1 X106.926 Y102.178 E0.01738
G1 X106.881 Y102.461 E0.00897
G1 X106.819 Y102.737 E0.00889
G1 X106.647 Y103.267 E0.01746
G1 X106.410 Y103.771 E0.01746
G1 X106.264 Y104.018 E0.00899
G1 X105.939 Y104.466 E0.01736
G1 X105.749 Y104.681 E0.00899
G1 X105.346 Y105.060 E0.01735
G1 X105.122 Y105.233 E0.00889
G1 X104.885 Y105.394 E0.00897
G1 X104.399 Y105.661 E0.01737
G1 X103.881 Y105.866 E0.01746
G1 X103.603 Y105.947 E0.00908
G1 X103.059 Y106.050 E0.01737
G1 X102.500 Y106.085 E0.01756
G1 X101.944 Y106.050 E0.01747
G1 X101.661 Y106.006 E0.00899
G1 X101.125 Y105.868 E0.01735
G1 X100.858 Y105.772 E0.00889
G1 X100.595 Y105.658 E0.00897
G1 X100.110 Y105.391 E0.01737
G1 X99.659 Y105.064 E0.01746
G1 X99.444 Y104.874 E0.00899
G1 X99.063 Y104.468 E0.01746
G1 X98.736 Y104.018 E0.01746
G1 X98.590 Y103.771 E0.00899
G1 X98.353 Y103.267 E0.01746
G1 X98.181 Y102.740 E0.01737
G1 X98.119 Y102.461 E0.00897
G1 X98.075 Y102.181 E0.00889
G1 X98.040 Y101.625 E0.01746
G1 X98.074 Y101.072 E0.01737
G1 X98.119 Y100.789 E0.00897
G1 X98.181 Y100.513 E0.00889
G1 X98.334 Y100.040 E0.01558
G1 X98.108 Y99.667 F7200.000
G1 F5760
G1 X98.590 Y99.479 E-0.21353
G1 F5760
G1 X98.736 Y99.232 E-0.09933
G1 F5760
G1 X99.061 Y98.784 E-0.19173
G1 F5760
G1 X99.251 Y98.569 E-0.09932
G1 F5760
G1 X99.579 Y98.261 E-0.15610
G1 E-0.04000 F2100.00000
G1 X142.747 Y100.718 F7200.000
G1 E0.80000 F2100.00000
G1 F840
G1 X142.896 Y100.139 E0.01874
G1 X143.002 Y99.845 E0.00981
G1 X143.126 Y99.556 E0.00985
G1 X143.415 Y99.032 E0.01877
G1 X143.766 Y98.548 E0.01875
G1 X143.980 Y98.306 E0.01012
G1 X144.409 Y97.903 E0.01846
G1 X144.657 Y97.711 E0.00983
G1 X144.918 Y97.534 E0.00990
G1 X145.434 Y97.251 E0.01844
G1 X145.727 Y97.124 E0.01002
G1 X146.297 Y96.939 E0.01877
G1 X146.893 Y96.825 E0.01904
G1 X147.488 Y96.787 E0.01869
G1 X147.816 Y96.798 E0.01028
G1 X148.397 Y96.871 E0.01837
G1 X148.712 Y96.942 E0.01012
G1 X149.282 Y97.127 E0.01878
G1 X149.830 Y97.385 E0.01902
G1 X150.336 Y97.706 E0.01876
G1 X150.591 Y97.903 E0.01011
G1 X151.018 Y98.304 E0.01837
G1 X151.234 Y98.548 E0.01021
G1 X151.585 Y99.032 E0.01875
G1 X151.874 Y99.556 E0.01877
G1 X151.998 Y99.845 E0.00985
G1 X152.104 Y100.139 E0.00981
G1 X152.253 Y100.718 E0.01874
G1 X152.328 Y101.312 E0.01878
G1 X152.337 Y101.625 E0.00981
G1 X152.328 Y101.938 E0.00981
G1 X152.253 Y102.532 E0.01878
G1 X152.104 Y103.111 E0.01874
G1 X151.998 Y103.405 E0.00981
G1 X151.874 Y103.694 E0.00985
G1 X151.585 Y104.218 E0.01877
G1 X151.234 Y104.702 E0.01875
G1 X151.020 Y104.944 E0.01012
G1 X150.591 Y105.347 E0.01846
G1 X150.343 Y105.539 E0.00983
G1 X150.082 Y105.716 E0.00990
G1 X149.566 Y105.999 E0.01844
G1 X149.273 Y106.126 E0.01003
G1 X148.700 Y106.312 E0.01886
G1 X148.107 Y106.425 E0.01895
G1 X147.500 Y106.463 E0.01906
G1 X146.893 Y106.425 E0.01906
G1 X146.297 Y106.311 E0.01904
G1 X145.727 Y106.126 E0.01877
G1 X145.431 Y105.998 E0.01011
G1 X144.916 Y105.714 E0.01845
G1 X144.409 Y105.347 E0.01963
G1 X143.980 Y104.944 E0.01846
G1 X143.766 Y104.702 E0.01012
G1 X143.415 Y104.218 E0.01875
G1 X143.126 Y103.694 E0.01877
G1 X142.896 Y103.111 E0.01964
G1 X142.747 Y102.532 E0.01874
G1 X142.672 Y101.938 E0.01877
G1 X142.672 Y101.312 E0.01962
G1 X142.740 Y100.778 E0.01689
G1 X143.118 Y100.789 F7200.000
G1 F840
G1 X143.257 Y100.250 E0.01745
G1 X143.353 Y99.983 E0.00888
G1 X143.465 Y99.723 E0.00890
G1 X143.734 Y99.235 E0.01747
G1 X144.061 Y98.784 E0.01745
G1 X144.251 Y98.569 E0.00900
G1 X144.654 Y98.190 E0.01735
G1 X144.879 Y98.017 E0.00889
G1 X145.116 Y97.856 E0.00898
G1 X145.600 Y97.590 E0.01733
G1 X145.861 Y97.477 E0.00891
G1 X146.391 Y97.305 E0.01747
G1 X146.941 Y97.200 E0.01755
G1 X147.494 Y97.165 E0.01739
G1 X147.786 Y97.174 E0.00916
G1 X148.332 Y97.243 E0.01725
G1 X148.612 Y97.306 E0.00900
G1 X149.143 Y97.478 E0.01748
G1 X149.648 Y97.716 E0.01754
G1 X150.119 Y98.015 E0.01747
G1 X150.346 Y98.190 E0.00899
G1 X150.747 Y98.567 E0.01727
G1 X150.939 Y98.784 E0.00909
G1 X151.266 Y99.235 E0.01745
G1 X151.535 Y99.723 E0.01747
G1 X151.647 Y99.983 E0.00890
G1 X151.743 Y100.250 E0.00888
G1 X151.882 Y100.789 E0.01745
G1 X151.952 Y101.342 E0.01747
G1 X151.960 Y101.625 E0.00889
G1 X151.952 Y101.908 E0.00889
G1 X151.882 Y102.461 E0.01747
G1 X151.743 Y103.000 E0.01745
G1 X151.647 Y103.267 E0.00888
G1 X151.535 Y103.527 E0.00890
G1 X151.266 Y104.015 E0.01747
G1 X150.939 Y104.466 E0.01745
G1 X150.749 Y104.681 E0.00900
G1 X150.346 Y105.060 E0.01735
G1 X150.121 Y105.233 E0.00889
G1 X149.884 Y105.394 E0.00898
G1 X149.400 Y105.660 E0.01733
G1 X149.139 Y105.773 E0.00891
G1 X148.607 Y105.946 E0.01756
G1 X148.059 Y106.050 E0.01747
G1 X147.500 Y106.085 E0.01757
G1 X146.941 Y106.050 E0.01757
G1 X146.391 Y105.945 E0.01755
G1 X145.861 Y105.773 E0.01747
G1 X145.597 Y105.659 E0.00899
G1 X145.113 Y105.393 E0.01734
G1 X144.654 Y105.060 E0.01777
G1 X144.251 Y104.681 E0.01735
G1 X144.061 Y104.466 E0.00900
G1 X143.734 Y104.015 E0.01745
G1 X143.465 Y103.527 E0.01747
G1 X143.257 Y103.000 E0.01777
G1 X143.118 Y102.461 E0.01745
G1 X143.048 Y101.908 E0.01746
G1 X143.048 Y101.342 E0.01778
G1 X143.111 Y100.849 E0.01558
G1 X142.816 Y100.528 F7200.000
G1 F5760
G1 X143.257 Y100.250 E-0.21344
G1 F5760
G1 X143.353 Y99.983 E-0.09811
G1 F5760
G1 X143.465 Y99.723 E-0.09832
G1 F5760
G1 X143.734 Y99.235 E-0.19298
G1 F5760
G1 X144.001 Y98.868 E-0.15716
G1 E-0.04000 F2100.00000
G1 X141.913 Y93.462 F7200.000
G1 E0.80000 F2100.00000
G1 F1680
G1 X161.913 Y93.462 E0.62709
G1 X161.913 Y109.712 E0.50951
G1 X174.913 Y109.712 E0.40761
G1 X174.913 Y118.538 E0.27673
G1 X75.087 Y118.538 E3.12997
G1 X75.087 Y109.712 E0.27673
G1 X88.087 Y109.712 E0.40761
G1 X88.087 Y93.462 E0.50951
G1 X108.087 Y93.462 E0.62709
G1 X108.087 Y91.462 E0.06271
G1 X141.913 Y91.462 E1.06059
G1 X141.913 Y93.402 E0.06083
G1 X142.290 Y93.085 F7200.000
G1 F1260
G1 X162.290 Y93.085 E0.62709
G1 X162.290 Y109.335 E0.50951
G1 X175.290 Y109.335 E0.40761
G1 X175.290 Y118.915 E0.30037
G1 X74.710 Y118.915 E3.15362
G1 X74.710 Y109.335 E0.30037
G1 X87.710 Y109.335 E0.40761
G1 X87.710 Y93.085 E0.50951
G1 X107.710 Y93.085 E0.62709
G1 X107.710 Y91.085 E0.06271
G1 X142.290 Y91.085 E1.08423
G1 X142.290 Y93.025 E0.06083
G1 X142.483 Y93.435 F7200.000
G1 F5760
G1 X144.484 Y93.032 E-0.76000
G1 E-0.04000 F2100.00000
G1 X141.800 Y91.947 F7200.000
G1 E0.80000 F2100.00000
G1 F2520
G1 X141.598 Y91.745 E0.00897
G1 X141.064 Y91.745 E0.01674
G1 X141.630 Y92.311 E0.02512
G1 X141.630 Y92.845 E0.01674
G1 X140.530 Y91.745 E0.04880
G1 X139.997 Y91.745 E0.01674
G1 X141.630 Y93.378 E0.07247
G1 X141.630 Y93.745 E0.01150
G1 X141.997 Y93.745 E0.01150
G1 X145.270 Y97.018 E0.14523
G1 X145.640 Y96.855 E0.01270
G1 X142.530 Y93.745 E0.13798
G1 X143.064 Y93.745 E0.01674
G1 X146.043 Y96.724 E0.13218
G1 X146.226 Y96.664 E0.00605
G1 X146.470 Y96.618 E0.00780
G1 X143.598 Y93.745 E0.12747
G1 X144.131 Y93.745 E0.01674
G1 X146.926 Y96.540 E0.12400
G1 X147.428 Y96.508 E0.01578
G1 X144.665 Y93.745 E0.12259
G1 X145.198 Y93.745 E0.01674
G1 X147.988 Y96.534 E0.12378
G1 X148.618 Y96.631 E0.02000
G1 X145.732 Y93.745 E0.12805
G1 X146.266 Y93.745 E0.01674
G1 X149.737 Y97.216 E0.15402
G1 F5760
G1 X148.185 Y95.665 E-0.76000
G1 E-0.04000 F2100.00000
G1 X145.051 Y97.332 F7200.000
G1 E0.80000 F2100.00000
G1 F2520
G1 X139.463 Y91.745 E0.24791
G1 X138.930 Y91.745 E0.01674
G1 X144.600 Y97.416 E0.25161
G1 X144.291 Y97.640 E0.01199
G1 X138.396 Y91.745 E0.26156
G1 X137.862 Y91.745 E0.01674
G1 X144.009 Y97.891 E0.27272
G1 X143.738 Y98.154 E0.01184
G1 X137.329 Y91.745 E0.28436
G1 X136.795 Y91.745 E0.01674
G1 X143.493 Y98.443 E0.29720
G1 X143.269 Y98.752 E0.01199
G1 X136.262 Y91.745 E0.31093
G1 X135.728 Y91.745 E0.01674
G1 X143.065 Y99.082 E0.32555
G1 X142.875 Y99.426 E0.01232
G1 X135.194 Y91.745 E0.34081
G1 X134.661 Y91.745 E0.01674
G1 X142.723 Y99.807 E0.35773
G1 X142.587 Y100.205 E0.01319
G1 X134.127 Y91.745 E0.37538
G1 X133.593 Y91.745 E0.01674
G1 X142.478 Y100.629 E0.39421
G1 X142.414 Y101.099 E0.01487
G1 X133.060 Y91.745 E0.41504
G1 X132.526 Y91.745 E0.01674
G1 X142.389 Y101.608 E0.43762
G1 X142.389 Y101.956 E0.01091
G1 X142.416 Y102.168 E0.00673
G1 X131.993 Y91.745 E0.46249
G1 X131.459 Y91.745 E0.01674
G1 X142.528 Y102.814 E0.49112
G1 X142.627 Y103.198 E0.01247
G1 X142.789 Y103.608 E0.01382
G1 X130.925 Y91.745 E0.52636
G1 X130.392 Y91.745 E0.01674
G1 X156.902 Y118.255 E1.17626
G1 X157.436 Y118.255 E0.01674
G1 X145.529 Y106.349 E0.52828
G1 X146.317 Y106.603 E0.02598
G1 X157.969 Y118.255 E0.51700
G1 X158.503 Y118.255 E0.01674
G1 X146.960 Y106.713 E0.51214
G1 X147.526 Y106.745 E0.01778
G1 X159.037 Y118.255 E0.51071
G1 X159.570 Y118.255 E0.01674
G1 X148.028 Y106.713 E0.51211
G1 X148.489 Y106.640 E0.01463
G1 X160.104 Y118.255 E0.51536
G1 X160.637 Y118.255 E0.01674
G1 X148.920 Y106.538 E0.51989
G1 X149.323 Y106.407 E0.01329
G1 X161.171 Y118.255 E0.52569
G1 X161.705 Y118.255 E0.01674
G1 X149.699 Y106.249 E0.53270
G1 X150.043 Y106.060 E0.01233
G1 X162.238 Y118.255 E0.54110
G1 X162.772 Y118.255 E0.01674
G1 X150.372 Y105.855 E0.55019
G1 X150.681 Y105.631 E0.01199
G1 X163.305 Y118.255 E0.56015
G1 X163.839 Y118.255 E0.01674
G1 X150.966 Y105.382 E0.57117
G1 X151.239 Y105.122 E0.01184
G1 X164.373 Y118.255 E0.58271
G1 X164.906 Y118.255 E0.01674
G1 X151.486 Y104.835 E0.59544
G1 X151.710 Y104.526 E0.01199
G1 X165.440 Y118.255 E0.60917
G1 X165.973 Y118.255 E0.01674
G1 X151.918 Y104.199 E0.62365
G1 X152.107 Y103.855 E0.01232
G1 X166.507 Y118.255 E0.63891
G1 X167.041 Y118.255 E0.01674
G1 X152.263 Y103.478 E0.65568
G1 X152.403 Y103.084 E0.01311
G1 X167.574 Y118.255 E0.67316
G1 X168.108 Y118.255 E0.01674
G1 X152.512 Y102.659 E0.69199
G1 X152.581 Y102.194 E0.01475
G1 X168.641 Y118.255 E0.71262
G1 X169.175 Y118.255 E0.01674
G1 X152.611 Y101.691 E0.73496
G1 X152.611 Y101.295 E0.01243
G1 X152.591 Y101.137 E0.00497
G1 X169.878 Y118.425 E0.76704
G1 F5760
G1 X168.327 Y116.873 E-0.76000
G1 E-0.04000 F2100.00000
G1 X174.085 Y109.825 F7200.000
G1 E0.80000 F2100.00000
G1 F2520
G1 X174.630 Y110.370 E0.02417
G1 X174.630 Y110.904 E0.01674
G1 X173.721 Y109.995 E0.04032
G1 X173.188 Y109.995 E0.01674
G1 X174.630 Y111.437 E0.06399
G1 X174.630 Y111.971 E0.01674
G1 X172.654 Y109.995 E0.08767
G1 X172.121 Y109.995 E0.01674
G1 X174.630 Y112.504 E0.11135
G1 X174.630 Y113.038 E0.01674
G1 X171.587 Y109.995 E0.13502
G1 X171.053 Y109.995 E0.01674
G1 X174.630 Y113.572 E0.15870
G1 X174.630 Y114.105 E0.01674
G1 X170.520 Y109.995 E0.18237
G1 X169.986 Y109.995 E0.01674
G1 X174.630 Y114.639 E0.20605
G1 X174.630 Y115.172 E0.01674
G1 X169.453 Y109.995 E0.22973
G1 X168.919 Y109.995 E0.01674
G1 X174.630 Y115.706 E0.25340
G1 X174.630 Y116.240 E0.01674
G1 X168.385 Y109.995 E0.27708
G1 X167.852 Y109.995 E0.01674
G1 X174.630 Y116.773 E0.30076
G1 X174.630 Y117.307 E0.01674
G1 X167.318 Y109.995 E0.32443
G1 X166.785 Y109.995 E0.01674
G1 X174.630 Y117.840 E0.34811
G1 X174.630 Y118.255 E0.01301
G1 X174.511 Y118.255 E0.00373
